!!!!SEGMENT: pl-kk--kk-i-474--003_studzinski-piotr-quarta-missa-credo.krn
!!!id: 18xx:1386
!!!COM: Studziński, Piotr
!!!OTL: Quarta Missa – Credo
!!!PDT: 1856
!!!SMS-siglum: PL-Kk
!!!SMS-shelfmark: Kk.I.474
!!!NIFC-rismID: 1001140244
!!!URL-scan: http://repozytorium.nifc.pl/skany/pl-kk-nut--i-474
!!!ONB-nifc: UWAGA: części Mszy: 1. Kyrie, 2. Gloria, 3. Credo, 4. Sanctus, 5. Benedictus, 6. Agnus, 7. Dona. Uwaga: Gloria zapisana osobno na ostatnich stronach
!!!SMS-variant: Alto PL-Kk Kk.I.474:17-19
!!!SMS-altvar: Alto.- PL-Kk Kk.I.474:13-15
**kern	**text	**kern	**text	**dynam	**kern	**text	**dynam	**kern	**text	**dynam	**kern	**text	**dynam	**kern	**text	**dynam
*part5	*part5	*part5	*part5	*part5	*part4	*part4	*part4	*part3	*part3	*part3	*part2	*part2	*part2	*part1	*part1	*part1
*	*	*	*	*	*group1	*	*	*group1	*	*	*group1	*	*	*group1	*	*
*staff6	*staff6	*staff5	*staff5	*	*staff4	*staff4	*	*staff3	*staff3	*	*staff2	*staff2	*	*staff1	*staff1	*
*I"Organo.	*	*	*	*	*I"Basso Duo	*	*	*I"Tenor	*	*	*I"Alto	*	*	*I"Canto	*	*
*I'org	*	*	*	*	*I'B	*	*	*I'T	*	*	*I'A	*	*	*I'S	*	*
*clefF4	*	*clefG2	*	*	*clefF4	*	*	*clefC4	*	*	*clefG2	*	*	*clefG2	*	*
*k[b-]	*	*k[b-]	*	*	*k[b-]	*	*	*k[b-]	*	*	*k[b-]	*	*	*k[b-]	*	*
*M3/4	*	*M3/4	*	*	*M3/4	*	*	*M3/4	*	*	*M3/4	*	*	*M3/4	*	*
=1	=1	=1	=1	=1	=1	=1	=1	=1	=1	=1	=1	=1	=1	=1	=1	=1
*^	*	*	*	*	*	*	*	*	*	*	*	*	*^	*	*	*
*	*	*	*	*	*	*all\left or right	*	*	*all\left or right	*	*	*	*	*	*	*	*	*
*	*2\right	*	*2\right	*	*	*2\right	*	*	*2\right	*	*	*	*	*	*	*2\right	*	*below
!	!	!	!LO:TX:a:t=P:problem:dynamika, artykulacja wpisane innym atramentem	!	!	!LO:TX:a:t=P:problem:dynamika, artykulacja wpisane innym atramentem	!	!	!LO:TX:a:t=P:problem:dynamika, artykulacja wpisane innym atramentem	!	!	!LO:TX:a:t=P:problem:dynamika, artykulacja wpisane innym atramentem	!	!	!	!LO:TX:a:t=P:problem:dynamika, artykulacja wpisane innym atramentem	!	!
!	!	!	!	!	!LO:DY:rj	!LO:TX:a:i:t=Allegretto	!	!LO:DY:rj:t=fo	!LO:TX:a:i:t=Allegretto.	!	!LO:DY:rj	!LO:TX:a:i:t=allegretto.	!	!LO:DY:rj	!LO:DY:a	!LO:TX:b:i:t=Allegretto	!	!LO:DY:rj
2.F/	2.F\	Cre-	2.ff\ 2.f\	.	f	2.F\	Cre-	f	2.f\	Cre-	ff	2.f/	Cre-	f	f	2.ff\	Cre-	f
*	*	*	*	*	*	*	*	*	*	*	*	*	*	*v	*v	*	*	*
=2	=2	=2	=2	=2	=2	=2	=2	=2	=2	=2	=2	=2	=2	=2	=2	=2	=2
4F/	4F\	-do	4f/	.	.	4F\	-do	.	4F/	-do	.	4f/	-do	.	4f/	-do	.
4r	4ryy	.	4r	.	.	4r	.	.	4r	.	.	4r	.	.	4r	.	.
4r	4ryy	.	4r	.	p	4r	.	.	4r	.	.	4r	.	.	4r	.	.
.	.	.	.	.	.	.	.	p	.	.	p	.	.	p	.	.	p
*v	*v	*	*	*	*	*	*	*	*	*	*	*	*	*	*	*	*
=3	=3	=3	=3	=3	=3	=3	=3	=3	=3	=3	=3	=3	=3	=3	=3	=3
!	!	!LO:TX:b:i:t=dolc legato	!	!	!LO:TX:a:i:t=dol&colon;	!	!	!	!	!	!LO:TX:a:i:t=dol&colon;	!	!	!LO:TX:b:t=dol&colon;	!	!
4c\ 4F\	Cre-	4a/ 4f/	.	.	4F\	cre-	.	4c\	cre-	.	4f/	cre-	.	(4a/	cre-	.
4e\ 4F\	-do	4cc/ 4g/	.	.	4F\	-do	.	4e\	-do	.	4g/	-do	.	4cc\	-do	.
!	!	!	!	!	!	!	!	!	!	!	!LO:TX:a:i:t=legato	!	!	!	!	!
4d\ 4F\	in	4b-/ 4f/	.	.	4F\	in	.	4d\	in	.	4f/	in	.	4b-\)	in	.
=4	=4	=4	=4	=4	=4	=4	=4	=4	=4	=4	=4	=4	=4	=4	=4	=4
*^	*	*	*	*	*	*	*	*	*	*	*	*	*	*	*	*
!	!	!	!	!	!	!	!	!	!	!	!	!	!	!	!LO:TX:b:i:t=legato	!	!
4c/	2F\	u-	4a/ 4f/	.	.	2F\	u-	.	(4c\	u-	.	(>4f/	u-	.	(>4a/	u-	.
4B-/	.	.	4g/ 4c/	.	.	.	.	.	4B-\)	.	.	4c/)	.	.	4g/	.	.
4A/	4F\	num	4f/ 4c/	.	.	4F\	-num	.	4A\	-num	.	4c/	-num	.	4f/)	-num	.
=5	=5	=5	=5	=5	=5	=5	=5	=5	=5	=5	=5	=5	=5	=5	=5	=5	=5
*	*	*	*^	*	*	*	*	*	*	*	*	*	*	*	*	*	*
2G/	2.C\	De-	4g/	2.B-\	.	.	2.C/	De-	.	2G/	De-	.	2.B-/	De-	.	(>4g/	de-	.
.	.	.	4e/	.	.	.	.	.	.	.	.	.	.	.	.	4e/	.	.
4F/	.	.	4f/	.	.	.	.	.	.	4F/	.	.	.	.	.	4f/)	.	.
!	!	!	!	!	!	!	!LO:LB:g=original	!	!	!LO:LB:g=original	!	!	!	!	!	!LO:LB:g=original	!	!
=6	=6	=6	=6	=6	=6	=6	=6	=6	=6	=6	=6	=6	=6	=6	=6	=6	=6	=6
2E/	2C\	-um	4f#X/	2B-\	.	.	2C/	-um	.	2E/	-um	.	2B-/	-um	.	(4f#X/	-um	.
.	.	.	4g/	.	.	.	.	.	.	.	.	.	.	.	.	4g/)	.	.
4ryy	4ryy	.	4r	4ryy	.	.	4r	.	.	4r	.	.	4r	.	.	4r	.	.
!	!	!	!	!	!	!	!	!	!	!	!	!LO:DY:t=po	!	!	!	!	!	!
.	.	.	.	.	.	.	.	.	.	.	.	p	.	.	.	.	.	.
*	*	*	*v	*v	*	*	*	*	*	*	*	*	*	*	*	*	*	*
!LO:LB:g=original	!LO:LB:g=original	!	!LO:LB:g=original	!	!	!	!	!	!	!	!	!LO:LB:g=original	!	!	!	!	!
=7	=7	=7	=7	=7	=7	=7	=7	=7	=7	=7	=7	=7	=7	=7	=7	=7	=7
4d/	4C\	Pa-	(>4b-/ 4f/	.	.	4C\	Pa-	.	4d\	Pa-	.	4f/	Pa-	.	(4b-\	Pa-	.
4f/	4C\	-trem	4dd/ 4a/	.	.	4C\	-trem	.	4f\	-trem	.	4a/	-trem	.	4dd\	-trem	.
4e/	4C\	o-	4cc/) 4g/	.	.	4C\	om-	.	4e\	o-	.	4g/	o-	.	4cc\)	o-	.
=8	=8	=8	=8	=8	=8	=8	=8	=8	=8	=8	=8	=8	=8	=8	=8	=8	=8
*	*	*	*^	*	*	*	*	*	*	*	*	*	*	*	*	*	*
4d/	2C\	-mni-	4b-/	2f\	.	.	2C/	-ni-	.	4d\	-mni-	.	2f/	-mni-	.	(4b-\	-mni-	.
4c/	.	.	4a/	.	.	.	.	.	.	4c\	.	.	.	.	.	4a\	.	.
4B-/	4C\	-po-	4g/ 4e/	4ryy	.	.	4C/	-po-	.	4B-\	-po-	.	4e/	-po-	.	4g\)	-po-	.
*	*	*	*v	*v	*	*	*	*	*	*	*	*	*	*	*	*	*	*
=9	=9	=9	=9	=9	=9	=9	=9	=9	=9	=9	=9	=9	=9	=9	=9	=9	=9
4B-/	2.F\	-ten-	4g/ 4e/	.	.	[2.F\	-ten-	.	(4B-\	-ten-	.	4e/	-ten-	.	4g/	-ten-	.
!	!	!	!	!	!	!	!	!	!	!	!	!	!	!	!LO:TX:a:i:t=dol&colon;	!	!
(<4A/	.	.	4f/ 4c/	.	.	.	.	.	4A\)	.	.	4c/	.	.	4f/	.	.
!	!	!	!	!	!	!	!	!	!LO:TX:a:i:t=legato	!	!	!	!	!	!	!	!
4c/)	.	.	4g/ 4e/	.	.	.	.	.	[4c\	.	.	4e/	.	.	4g/	.	.
!	!	!	!	!	!	!	!	!	!	!	!	!	!	!LO:DY:a	!	!	!
.	.	.	.	.	.	.	.	.	.	.	.	.	.	f	.	.	.
=10	=10	=10	=10	=10	=10	=10	=10	=10	=10	=10	=10	=10	=10	=10	=10	=10	=10
!	!	!	!	!	!	!	!	!	!	!	!	!	!	!	!LO:TX:a:i:t=legato	!	!
4c/	4F\	.	4g#X/ 4e/	.	.	4F\]	.	.	4c\]	.	.	4e/	.	.	4g#X/	.	.
4c/	4F\	-tem	4a/ 4f/	.	.	4F\	-tem	.	4c\	-tem	.	4f/	-tem	.	4a/	-tem	.
4r	4r	.	4r 4ryy	.	.	4r	.	.	4r	.	.	4r	.	.	4r	.	.
.	.	.	.	.	.	.	.	.	.	.	.	.	.	.	.	.	p
!	!	!	!	!	!	!	!	!	!	!	!	!LO:PB:g=original	!	!	!	!	!
=11	=11	=11	=11	=11	=11	=11	=11	=11	=11	=11	=11	=11	=11	=11	=11	=11	=11
!	!	!	!	!	!LO:DY:rj	!	!	!	!	!	!	!	!	!	!	!	!
4d/	(8BB-\L	fac-	4b-/ 4f/	.	p	(>8BB-/L	fa-	.	4d\	fac-	.	4f/	fa-	.	4b-\	fa-	.
.	8AA\J)	.	.	.	.	8AA/J	.	.	.	.	.	.	.	.	.	.	.
4d/	(8BB-\L	-to-	4b-/ 4f/	.	.	8BB-/L	-cto-	.	4d\	-to-	.	4f/	-cto-	.	4b-\	-cto-	.
.	8C\J)	.	.	.	.	8C/J	.	.	.	.	.	.	.	.	.	.	.
4d/	(8D\L	-rem	4b-/ 4f/	.	.	(8D/L	-rem-	.	4d\	-rem	.	4f/	-rem	.	4b-\	-rem	.
.	8E\J)	.	.	.	.	8E/J))	.	.	.	.	.	.	.	.	.	.	.
!	!	!	!	!	!	!LO:LB:g=original	!	!	!LO:LB:g=original	!	!	!	!	!	!LO:LB:g=original	!	!
=12	=12	=12	=12	=12	=12	=12	=12	=12	=12	=12	=12	=12	=12	=12	=12	=12	=12
4c/	8F\L	ce-	4a/ 4f/	.	.	8F\L	-ce-	.	4c\	ce-	.	4f/	ce-	.	4a/	ce-	.
.	8E\J	.	.	.	.	8E\J	.	.	.	.	.	.	.	.	.	.	.
4c/	8F\L	-li	4a/ 4f/	.	.	8F\L	-li	.	4c\	-li	.	4f/	-li	.	4a/	-li	.
.	8G\J	.	.	.	.	8G\J	.	.	.	.	.	.	.	.	.	.	.
4c/	8A\L	et	4a/ 4f/	.	.	8A\L	et	.	4c\	et	.	4f/	et	.	4a/	et	.
.	8F\J	.	.	.	.	8F\J	.	.	.	.	.	.	.	.	.	.	.
=13	=13	=13	=13	=13	=13	=13	=13	=13	=13	=13	=13	=13	=13	=13	=13	=13	=13
*	*	*	*^	*	*	*	*	*	*	*	*	*	*	*	*	*	*
!	!	!	!	!	!	!	!	!	!	!	!	!	!	!	!	!LO:TX:a:i:t=legato	!	!
(<8B-/L	2.BB-\	ter-	2.b-/	4d\	.	.	2.BB-/	ter-	.	(8B-\L	ter-	.	4d/	ter-	.	2.b-/	ter-	.
8A/J	.	.	.	.	.	.	.	.	.	8A\J	.	.	.	.	.	.	.	.
8B-/L	.	.	.	8d\L	.	.	.	.	.	8B-\L	.	.	(8d/L	.	.	.	.	.
8c/J	.	.	.	8e\J	.	.	.	.	.	8c\J	.	.	8e/J)	.	.	.	.	.
8d/L	.	.	.	8f\L	.	.	.	.	.	8d\L	.	.	(8f/L	.	.	.	.	.
8e/J)	.	.	.	8g\J	.	.	.	.	.	8e\J)	.	.	8g/J)	.	.	.	.	.
*	*	*	*v	*v	*	*	*	*	*	*	*	*	*	*	*	*	*	*
*v	*v	*	*	*	*	*	*	*	*	*	*	*	*	*	*	*	*
!LO:LB:g=original	!	!LO:LB:g=original	!	!	!	!	!	!	!	!	!	!	!	!	!	!
=14	=14	=14	=14	=14	=14	=14	=14	=14	=14	=14	=14	=14	=14	=14	=14	=14
4f\ 4F\	-ra	4a/ 4f/	.	.	4F\	-ra	.	4f\	-ra	.	4a/	-ra	.	4a/	-ra	.
4c\ 4F\	vi-	4a/ 4f/	.	.	4F\	vi-	.	4c\	vi-	.	4f/	vi-	.	4a/	vi-	.
4c\ 4F\	-si-	4a/ 4f/	.	.	4F\	-si-	.	4c\	-si-	.	4f/	-si-	.	4a/	-si-	.
=15	=15	=15	=15	=15	=15	=15	=15	=15	=15	=15	=15	=15	=15	=15	=15	=15
*	*	*^	*	*	*	*	*	*	*	*	*	*	*	*	*	*
2c\ 2E\	-bi-	4.cc/	2g\	.	.	2E\	-bi-	.	2c\	-bi-	.	2g/	-bi-	.	(4.cc\	-bi-	.
.	.	8dd/	.	.	.	.	.	.	.	.	.	.	.	.	8dd\)	.	.
8c\ 8E\	-li-	8cc/ 8g/	4ryy	.	.	8E\	-li-	.	8c\	-li-	.	8g/	-li-	.	8cc\	-li-	.
8c\ 8E\	-um	8b-/ 8g/	.	.	.	8E\	-um	.	8c\	-um	.	8g/	-um	.	8b-\	-um	.
!	!	!	!	!	!	!	!	!	!	!	!	!LO:LB:g=original	!	!	!	!	!
*	*	*v	*v	*	*	*	*	*	*	*	*	*	*	*	*	*	*
=16	=16	=16	=16	=16	=16	=16	=16	=16	=16	=16	=16	=16	=16	=16	=16	=16
*^	*	*	*	*	*	*	*	*	*	*	*	*	*	*	*	*
!LO:N:vis=8	!	!	!	!	!	!	!	!	!	!	!	!	!	!	!	!	!
8.c\ 8.F\	4ryy	bi-	8.b-/ 8.g/	.	.	8.F\	bi-	.	8.c\	bi-	.	8.g/	bi-	.	8.b-\	bi-	.
16c\ 16F\	.	-li-	16a/ 16f/	.	.	16F\	-li-	.	16c\	-li-	.	16f/	-li-	.	16a\	-li-	.
8c/	4F\	-um	8a/ 8f/	.	.	4F\	-um	.	8c\	-um	.	8f/	-um	.	8a\	-um	.
8rc	.	.	8r	.	.	.	.	.	8r	.	.	8r	.	.	8r	.	.
4r	8E\L	Et	4r	.	.	8E\	Et	.	4r	.	.	4r	.	.	4r	.	.
.	8D\J	in	.	.	.	8D\	in	.	.	.	.	.	.	.	.	.	.
*v	*v	*	*	*	*	*	*	*	*	*	*	*	*	*	*	*	*
!	!	!	!	!	!LO:LB:g=original	!	!	!LO:LB:g=original	!	!	!	!	!	!LO:PB:g=original	!	!
=17	=17	=17	=17	=17	=17	=17	=17	=17	=17	=17	=17	=17	=17	=17	=17	=17
!	!	!	!	!	!	!	!	!LO:TX:a:t=P:problem:skreslone dwie nuty	!	!	!	!	!	!	!	!
4.A\ 4.C#X\	vi-	4.a/ 4.e/	Et	.	[4.C#X/	vi-	.	4.A\	Et	.	4.e/	Et	.	4.a/	Et	.
8A\ 8C#\	.	8b-/ 8e/	in	.	8C#/]	.	.	8A\	in	.	8e/	in	.	8b-/	in	.
8A\ 8C#\	-si-	8a/ 8e/	vi-	.	[8C#/	-si-	.	8A\	vi-	.	8e/	vi-	.	8a/	vi-	.
8A\ 8C#\	.	8g/ 8e/	-si	.	8C#/]	.	.	8A\	-si-	.	8e/	-si-	.	8g/	-si-	.
=18	=18	=18	=18	=18	=18	=18	=18	=18	=18	=18	=18	=18	=18	=18	=18	=18
8.A\ 8.D\	-bi-	8.g/ 8.e/	.	.	8.D\	-bi-	.	8.A\	-bi-	.	8.e/	-bi-	.	8.g/	-bi-	.
16A\ 16D\	-li-	16f/ 16d/	.	.	16D\	-li-	.	16A\	-li-	.	16d/	-li-	.	16f/	-li-	.
4A\ 4D\	-um	4f/ 4d/	.	.	4D\	-um	.	4A\	-um	.	4d/	-um	.	4f/	-um	.
4r	.	4r	.	.	4r	.	.	4r	.	.	4r	.	.	4r	.	.
.	.	.	.	.	.	.	f	.	.	f	.	.	ff	.	.	.
!LO:PB:g=original	!	!LO:PB:g=original	!	!	!	!	!	!	!	!	!	!	!	!	!	!
=19	=19	=19	=19	=19	=19	=19	=19	=19	=19	=19	=19	=19	=19	=19	=19	=19
*^	*	*^	*	*	*	*	*	*	*	*	*	*	*	*	*	*
!	!	!	!	!	!	!LO:DY:rj	!	!	!	!	!	!	!	!	!	!	!	!LO:DY:a
2f\	2BB-\	Et	2dd/	2g\	.	ff	2BB-/	Et	.	2f\	Et	.	2g/	Et	.	2dd\	Et	ff
4f\	4B-\	in	8cc#X/L	4g\	.	.	4B-\	in	.	4f\	in	.	4g/	in	.	8cc#X\L	in	.
.	.	.	8dd/J	.	.	.	.	.	.	.	.	.	.	.	.	8dd\J	.	.
=20	=20	=20	=20	=20	=20	=20	=20	=20	=20	=20	=20	=20	=20	=20	=20	=20	=20	=20
4f\	4B-\	u-	8ee/L	4g\	.	.	(4B-\	u-	.	4f\	u-	.	2g/	u-	.	(8ee\L	u-	.
.	.	.	8dd/	.	.	.	.	.	.	.	.	.	.	.	.	8dd\	.	.
4d\	4BB-\	.	8cc/	4g\	.	.	4BB-/)	.	.	4d\	.	.	.	.	.	8cc\	.	.
.	.	.	8b-/J	.	.	.	.	.	.	.	.	.	.	.	.	8b-\J)	.	.
4B-\	4BB-\	-num	8a/L	4d\	.	.	4BB-/	-num	.	4B-\	-num	.	4d/	-num	.	8a/L	-num	.
.	.	.	8g/J	.	.	.	.	.	.	.	.	.	.	.	.	8g/J	.	.
!	!	!	!	!	!	!	!	!	!	!	!	!	!LO:LB:g=original	!	!	!	!	!
=21	=21	=21	=21	=21	=21	=21	=21	=21	=21	=21	=21	=21	=21	=21	=21	=21	=21	=21
!	!	!	!LO:N:vis=2	!	!	!	!	!	!	!	!	!	!	!	!	!LO:N:vis=2	!	!
2A\	2C\	Do-	4f/	2c\	.	.	2C/	Do-	.	2A\	Do-	.	2c/	Do-	.	4f/	Do-	.
.	.	.	4r	.	.	.	.	.	.	.	.	.	.	.	.	4r	.	.
4B-\	4C\	-mi-	8a/L	4e\	.	.	4C/	-mi-	.	4B-\	-mi-	.	4e/	-mi-	.	8a/L	mi-	.
.	.	.	8g/J	.	.	.	.	.	.	.	.	.	.	.	.	8g/J	.	.
!	!	!	!	!	!	!	!LO:LB:g=original	!	!	!LO:LB:g=original	!	!	!	!	!	!	!	!
=22	=22	=22	=22	=22	=22	=22	=22	=22	=22	=22	=22	=22	=22	=22	=22	=22	=22	=22
4A/	4F\	-num	4f/	4f\	.	.	4F\	-num	.	4A\	-num	.	4f/	-num	.	4f/	-num	.
4ryy	4F\	Je-	4r	4ryy	.	.	4F\	Je-	.	4r	.	.	4r	.	.	4r	.	.
4ryy	4F\	-sum	4r	4ryy	.	.	4F\	-sum	.	4r	.	.	4r	.	.	4r	.	.
.	.	.	.	.	.	p	.	.	.	.	.	p	.	.	p	.	.	.
!	!	!	!	!	!	!	!	!	!	!	!	!	!	!	!	!LO:LB:g=original	!	!
=23	=23	=23	=23	=23	=23	=23	=23	=23	=23	=23	=23	=23	=23	=23	=23	=23	=23	=23
!	!	!	!	!	!	!	!	!	!	!	!	!	!	!	!	!	!	!LO:DY:rj
*	*	*	*	*	*above	*	*	*	*	*	*	*	*	*	*	*	*	*
2Bn\	2.F\	Chris-	2a-X/	2d\	Je-	.	2.F\	Chris-	.	2Bn\	Je-	.	2d/	Je-	.	2a-X/	Je-	p
4B/	.	.	4a-/	4a-\	-zum	.	.	.	.	4B\	-sum	.	4d/	-sum	.	4a-/	-sum	.
*	*	*	*v	*v	*	*	*	*	*	*	*	*	*	*	*	*	*	*
*v	*v	*	*	*	*	*	*	*	*	*	*	*	*	*	*	*	*
=24	=24	=24	=24	=24	=24	=24	=24	=24	=24	=24	=24	=24	=24	=24	=24	=24
4c\ 4E\	-tum	4g/ 4c/	Chris-	.	4E\	-tum	.	4c\	Chris-	.	4c/	Chri-	.	4g/	Chri-	.
4c\ 4G\	fi-	4e/ 4c/	-tum	.	4G\	fi-	.	4c\	-tum	.	4c/	-stum	.	4e/	-stum	.
8G\	-li-	4r	.	.	8G\	-li-	.	4r	.	.	4r	.	.	4r	.	.
8G\	-um	.	.	.	8G\	-um	.	.	.	.	.	.	.	.	.	.
=25	=25	=25	=25	=25	=25	=25	=25	=25	=25	=25	=25	=25	=25	=25	=25	=25
4.c#X\ 4.G\	De-	4.b-X/ 4.e/	.	.	4.G\	De-	.	4.c#X\	De-	.	4.e/	De-	.	4.b-X\	De-	.
8c#\ 8G\	-i	8b-/ 8e/	.	.	8G\	-i	.	8c#\	-i	.	8e/	-i	.	8b-\	-i	.
8c#\ 8G\	u-	8b-/ 8e/	.	.	8G\	u-	.	8c#\	u-	.	8e/	u-	.	8b-\	u-	.
8c#\ 8G\	-ni	8b-/ 8e/	.	.	8G\	-ni	.	8c#\	-ni	.	8e/	-ni	.	8b-\	-ni-	.
!LO:LB:g=original	!	!LO:LB:g=original	!	!	!	!	!	!	!	!	!	!	!	!	!	!
=26	=26	=26	=26	=26	=26	=26	=26	=26	=26	=26	=26	=26	=26	=26	=26	=26
!	!	!	!	!	!LO:N:vis=8	!	!	!	!	!	!	!	!	!	!	!
8.d\ 8.F#X\	ge-	8.a/ 8.d/	.	.	8.F#X\	ge-	.	8.d\	ge-	.	8.d/	ge-	.	8.a/	-ge-	.
16d\ 16A\	-ni-	16f#X/ 16d/	.	.	16A\	-ni-	.	16d\	-ni-	.	16d/	-ni-	.	16f#X/	-ni-	.
4d\ 4A\	-tum	4f#/ 4d/	.	.	4A\	-tum	.	4d\	-tum	.	4d/	-tum	.	4f#/	-tum	.
4r	.	4r	.	.	4r	.	.	4r	.	.	4r	.	.	4r	.	.
!	!	!	!	!	!LO:LB:g=original	!	!	!LO:LB:g=original	!	!	!LO:LB:g=original	!	!	!	!	!
=27	=27	=27	=27	=27	=27	=27	=27	=27	=27	=27	=27	=27	=27	=27	=27	=27
2e-X\ 2A\	Et	2cc\ 2f#X\	.	.	2A\	Et	.	2e-X\	Et	.	2f#X/	Et	.	2cc\	Et	.
4e-\ 4G\	ex	4cc\ 4g\	.	.	4G\	ex	.	4e-\	ex	.	4g/	ex	.	4cc\	ex	.
=28	=28	=28	=28	=28	=28	=28	=28	=28	=28	=28	=28	=28	=28	=28	=28	=28
*^	*	*^	*	*	*	*	*	*	*	*	*	*	*	*	*	*
*	*	*	*	*	*	*	*	*	*	*	*	*	*2\right	*	*	*	*	*
4e-X/	4F#X\	Pa-	4cc/	2a\	.	.	2F#X\	pa-	.	4e-X\	Pa-	.	2a\	Pa-	.	(4cc\	Pa-	.
2d\	2F#\	-tre	4dd/	.	.	.	.	.	.	2d\	-tre	.	.	.	.	4dd\)	.	.
.	.	.	4a/	4a/	.	.	4F#\	-tre	.	.	.	.	4a\	-tre	.	4a\	-tre	.
*	*	*	*v	*v	*	*	*	*	*	*	*	*	*	*	*	*	*	*
*v	*v	*	*	*	*	*	*	*	*	*	*	*	*	*	*	*	*
!	!	!	!	!	!	!	!	!	!	!	!	!	!	!LO:LB:g=original	!	!
=29	=29	=29	=29	=29	=29	=29	=29	=29	=29	=29	=29	=29	=29	=29	=29	=29
2d\ 2G\	Et	2b-/ 2g/	.	.	2G\	Et	.	2d\	Et	.	2g/	Et	.	2b-\	Et	.
4d-X\ 4G\	ex	4b-/ 4f/	.	.	4G\	ex	.	4d-X\	ex	.	4fn/	ex	.	4b-\	ex	.
=30	=30	=30	=30	=30	=30	=30	=30	=30	=30	=30	=30	=30	=30	=30	=30	=30
*^	*	*^	*	*	*	*	*	*	*	*	*	*	*	*	*	*
4c\	2C\	Pa-	4b-/	2e\	.	.	2C/	Pa-	.	4c\	Pa-	.	2e/	Pa-	.	(4b-\	Pa-	.
4G\	.	.	4cc/	.	.	.	.	.	.	4G\	.	.	.	.	.	4cc\)	.	.
4B-\	4C\	-tre	4g/	4e\	.	.	4C/	-tre	.	4B-\	-tre	.	4e/	-tre	.	4g\	-tre	.
*	*	*	*v	*v	*	*	*	*	*	*	*	*	*	*	*	*	*	*
*v	*v	*	*	*	*	*	*	*	*	*	*	*	*	*	*	*	*
=31	=31	=31	=31	=31	=31	=31	=31	=31	=31	=31	=31	=31	=31	=31	=31	=31
!LO:N:vis=8	!	!	!	!	!	!	!	!	!	!	!	!	!	!	!	!
8.A\ 8.F\	na-	8a/ 8f/	.	.	8F\	na-	.	8A\	na-	.	8f/	na-	.	8a/	na-	.
.	.	8a/ 8f/	.	.	8F\	-tum	.	8A\	-tum	.	8f/	-tum	.	8a/	-tum	.
16A\ 16F\	-tum	.	.	.	.	.	.	.	.	.	.	.	.	.	.	.
4B-\ 4G\	an-	4e/ 4c/	.	.	4G\	an-	.	4B-\	an-	.	4c/	an-	.	4e/	an-	.
4c\ 4A\	-te	4f/ 4c/	.	.	4A\	-te	.	4c\	-te	.	4c/	-te	.	4f/	-te	.
=32	=32	=32	=32	=32	=32	=32	=32	=32	=32	=32	=32	=32	=32	=32	=32	=32
*^	*	*^	*	*	*	*	*	*	*	*	*	*	*	*	*	*
2B-/	2B-\	o-	8f#X/L	2d\	.	.	2B-\	o-	.	2B-\	o-	.	2d/	o-	.	(8f#X\L	o-	.
.	.	.	8g/	.	.	.	.	.	.	.	.	.	.	.	.	8g\	.	.
.	.	.	8ee/	.	.	.	.	.	.	.	.	.	.	.	.	8ee\	.	.
.	.	.	8dd/J	.	.	.	.	.	.	.	.	.	.	.	.	8dd\J)	.	.
8G/ 8BB-/	4ryy	-mni-	8b-/ 8d/	4ryy	.	.	8BB-/	-mni-	.	8G/	-mni-	.	8d/	-mni-	.	8b-\	-mni-	.
8B-/ 8BB-/	.	-a	8g/ 8d/	.	.	.	8BB-/	-a	.	8B-/	-a	.	8d/	-a	.	8g\	-a	.
*v	*v	*	*	*	*	*	*	*	*	*	*	*	*	*	*	*	*	*
!	!	!	!	!	!	!LO:LB:g=original	!	!	!LO:LB:g=original	!	!	!LO:LB:g=original	!	!	!	!	!
=33	=33	=33	=33	=33	=33	=33	=33	=33	=33	=33	=33	=33	=33	=33	=33	=33	=33
!	!	!LO:N:vis=2	!LO:N:vis=2:xstem	!	!	!	!	!	!	!	!	!	!	!	!LO:N:vis=2	!	!
2A\ 2C\	se-	4f/	4c\	.	.	2C/	se-	.	2A\	se-	.	2c/	se-	.	4f/	se-	.
.	.	4r	4ryy	.	.	.	.	.	.	.	.	.	.	.	4r	.	.
!	!	!LO:N:vis=8	!	!	!	!	!	!	!	!	!	!	!	!	!	!	!
4B-\ 4C\	-cu-	8.a/L	4e\	.	.	4C/	-cu-	.	4B-\	-cu-	.	4e/	-cu-	.	8.a/L	.	.
.	.	16g/Jk	.	.	.	.	.	.	.	.	.	.	.	.	16g/Jk	-cu-	.
!	!	!	!	!	!	!	!	!	!	!	!	!	!	!	!LO:LB:g=original	!	!
=34	=34	=34	=34	=34	=34	=34	=34	=34	=34	=34	=34	=34	=34	=34	=34	=34	=34
4A\ 4F\	-la	4f/	4f\	.	.	4F\	-la	.	4A\	-la	.	4f/	-la	.	4f/	-la	.
4A\ 4F\	De-	4r	4ryy	.	.	4F\	De-	.	4A\	De-	.	4r	.	.	4r	.	.
8.B-\ 8.G\	-um	4r	4ryy	.	.	8.G\	-um	.	8.B-\	-um	.	4r	.	.	4r	.	.
16B-\ 16G\	de	.	.	.	.	16G\	de	.	16B-\	de	.	.	.	.	.	.	.
*	*	*v	*v	*	*	*	*	*	*	*	*	*	*	*	*	*	*
=35	=35	=35	=35	=35	=35	=35	=35	=35	=35	=35	=35	=35	=35	=35	=35	=35
4c\ 4A\	De-	4r	.	.	4A\	De-	.	4c\	De-	.	4r	.	.	4r	.	p
4A\ 4F\	-o	4a/ 4f/	De-	.	4F\	-o	.	4A\	-o	.	4f/	De-	.	4a/	De-	.
4r	.	8b-/ 8g/	-um	.	4r	.	.	4r	.	.	8g/	-um	.	8b-/	-um	.
.	.	8b-/ 8g/	de	.	.	.	.	.	.	.	8g/	de	.	8b-/	de	.
=36	=36	=36	=36	=36	=36	=36	=36	=36	=36	=36	=36	=36	=36	=36	=36	=36
4r	.	2cc\ 2a\	De-	.	4r	.	.	4r	.	.	2a/	De-	.	2cc\	De-	.
4A\ 4F\	De-	.	.	.	4F\	De-	.	4A\	De-	.	.	.	.	.	.	.
4A\ 4E-X\	-o	4cc\ 4g\	-o	.	4E-X\	-o	.	4A\	-o	.	4g/	-o	.	4cc\	-o	.
=37	=37	=37	=37	=37	=37	=37	=37	=37	=37	=37	=37	=37	=37	=37	=37	=37
*^	*	*^	*	*	*	*	*	*	*	*	*	*	*	*	*	*
4.A/	2D\	lu-	4.cc/	2f#X\	.	.	2D\	lu-	.	4.A\	lu-	.	2f#X/	lu-	.	(4.cc\	lu-	.
8c/	.	.	8ee-X/	.	.	.	.	.	.	8c\	.	.	.	.	.	8ee-X\)	.	.
8B-/	8D\	-men-	8dd/	8f#\	.	.	8D\	-men	.	8B-\	-men-	.	8f#/	-men	.	8dd\	-men-	.
8A/	8D\	-de	8cc/	8f#\	.	.	8D\	de	.	8A\	-de	.	8f#/	De	.	8cc\	-de	.
*	*	*	*v	*v	*	*	*	*	*	*	*	*	*	*	*	*	*	*
!	!	!	!	!	!	!LO:LB:g=original	!	!	!LO:LB:g=original	!	!	!	!	!	!	!	!
=38	=38	=38	=38	=38	=38	=38	=38	=38	=38	=38	=38	=38	=38	=38	=38	=38	=38
8.A/	8.G\	lu-	8.cc/ 8.f#X/	.	.	8.G\	lu-	.	8.A\	lu-	.	8.f#X/	lu-	.	8.cc\	lu-	.
16A/	16G\	-mi-	16cc/ 16f#/	.	.	16G\	-mi-	.	16A\	-mi-	.	16f#/	-mi-	.	16cc\	-mi-	.
4G/	4G\	-ne	4b-/ 4g/	.	.	4G\	-ne	.	4G\	-ne	.	4g/	-ne	.	4b-\	-ne	.
4r	4ryy	.	4r	.	.	4r	.	.	4r	.	.	4r	.	.	4r	.	.
*v	*v	*	*	*	*	*	*	*	*	*	*	*	*	*	*	*	*
!LO:LB:g=original	!	!LO:LB:g=original	!	!	!	!	!	!	!	!	!LO:LB:g=original	!	!	!	!	!
=39	=39	=39	=39	=39	=39	=39	=39	=39	=39	=39	=39	=39	=39	=39	=39	=39
!	!	!	!	!	!	!	!LO:DY:a:rj	!	!	!	!LO:TX:b:t=1	!	!	!LO:TX:a:t=1	!	!
2B-\ 2G\	De-	2.ryy	.	.	2G\	De-	p	2B-\	De-	.	2.r	.	.	2.r	.	.
4c\ 4A\	-um	.	.	.	4A\	-um	.	4c\	-um	.	.	.	.	.	.	.
!	!	!	!	!	!	!	!	!	!	!	!	!	!	!LO:LB:g=original	!	!
=40	=40	=40	=40	=40	=40	=40	=40	=40	=40	=40	=40	=40	=40	=40	=40	=40
*	*	*	*below	*	*	*	*	*	*	*	*	*	*	*	*	*
4d\ 4B-\	ve-	4r	.	.	4B-\	ve-	.	4d\	ve-	.	4r	.	.	4r	.	.
4B-\ 4G\	-rum	4b-/ 4g/	De-	.	4G\	-rum	.	4B-\	-rum	.	4g/	De-	.	4b-\	De-	.
4r	.	4cc/ 4a/	-um	.	4r	.	.	4r	.	.	4a/	-um	.	4cc\	-um	.
=41	=41	=41	=41	=41	=41	=41	=41	=41	=41	=41	=41	=41	=41	=41	=41	=41
4r	.	4dd\ 4b-\	ve-	.	4r	.	.	4r	.	.	4b-\	ve-	.	4dd\	ve-	.
4d\ 4G\	ve-	4b-\ 4g\	-rum	.	4G\	ve-	.	4d\	ve-	.	4g/	-rum	.	4b-\	-num	.
8d-X\ 8F\	-rum	4b-\ 4g\	de	.	8F\	-rum	.	8d-X\	-rum	.	4g/	de	.	4b-\	de	.
8d-\ 8F\	de	.	.	.	8F\	de	.	8d-\	de	.	.	.	.	.	.	.
=42	=42	=42	=42	=42	=42	=42	=42	=42	=42	=42	=42	=42	=42	=42	=42	=42
2c\ 2E\	De-	2b-/ 2g/	.	.	2E\	De-	.	2c\	De-	.	2g/	De-	.	2b-/	De-	.
4c\ 4E\	-o	8dd\L 8b-\L	.	.	4E\	-o	.	4c\	-o	.	(8b-\L	-o	.	(8dd\L	-o	.
.	.	8cc\J 8a\J	.	.	.	.	.	.	.	.	8a\J)	.	.	8cc\J)	.	.
!	!	!	!	!	!LO:LB:g=original	!	!	!LO:LB:g=original	!	!	!	!	!	!	!	!
=43	=43	=43	=43	=43	=43	=43	=43	=43	=43	=43	=43	=43	=43	=43	=43	=43
4c\ 4F\	ve-	4b-\ 4g\	.	.	4F\	ve-	.	4c\	ve-	.	4g/	ve-	.	4b-\	ve-	.
4c\ 4F\	-ro	4a\ 4f\	.	.	4F\	-ro	.	4c\	-ro	.	4f/	-ro	.	4a\	-ro	.
4r	.	4r	.	.	4r	.	.	4r	.	.	4r	.	.	4r	.	.
.	.	.	.	pp	.	.	.	.	.	.	.	.	p	.	.	pp
=44	=44	=44	=44	=44	=44	=44	=44	=44	=44	=44	=44	=44	=44	=44	=44	=44
!	!	!	!	!	!	!	!LO:DY:rj	!	!	!	!	!	!	!	!	!
4.d\ 4.BB-\	ge-	4.g/ 4.f/	.	.	4.BB-/	ge-	p	4.d\	ge-	.	4.f/	ge-	.	4.g/	ge-	.
8d\ 8BB-\	-ni-	8g/ 8f/	.	.	8BB-/	-ni-	.	8d\	-ni-	.	8f/	-ni-	.	8g/	-ni-	.
8d\ 8BB-\	-tum	8g/ 8f/	.	.	8BB-/	-tum	.	8d\	-tum	.	8f/	-tum	.	8g/	-tum	.
8d\ 8BB-\	non	8g/ 8f/	.	.	8BB-/	non	.	8d\	non	.	8f/	non	.	8g/	non	.
!	!	!	!	!	!	!	!	!	!	!	!LO:LB:g=original	!	!	!	!	!
=45	=45	=45	=45	=45	=45	=45	=45	=45	=45	=45	=45	=45	=45	=45	=45	=45
2d\ 2BBn\	fac-	2a-X/ 2f/	.	.	2BBn/	fa-	.	2d\	fa-	.	2f/	fa-	.	2a-X/	fa-	.
4d\ 4BB\	-tum	4a-/ 4f/	.	.	4BB/	-ctum	.	4d\	-ctum	.	4f/	-ctum	.	4a-/	-ctum	.
!LO:LB:g=original	!	!LO:LB:g=original	!	!	!	!	!	!	!	!	!	!	!	!LO:LB:g=original	!	!
=46	=46	=46	=46	=46	=46	=46	=46	=46	=46	=46	=46	=46	=46	=46	=46	=46
!	!	!	!	!LO:HP:t=cres	!	!	!	!	!	!	!	!	!	!	!	!
8e-X\ 8C\	con-	8an/ 8f/	.	<	8C/	con-	.	8e-X\	con-	.	8f/	con-	.	8an/	con-	.
8e-\ 8C\	-sub-	8a/ 8f/	.	.	8C/	-sub-	.	8e-\	-sub-	.	8f/	-sub-	.	8a/	-sub-	.
8e-\ 8C\	-stan-	8a/ 8f/	.	.	8C/	-stan-	.	8e-\	-stan-	.	8f/	-stan-	.	8a/	-stan-	.
8e-\ 8C\	-ci-	8a/ 8f/	.	.	8C/	-ci-	.	8e-\	-ci-	.	8f/	-ci-	.	8a/	-ci-	.
8c\ 8E\	-a-	8a/ 8f/	.	.	8E-X\	-a-	.	8c\	-a-	.	8f/	-a-	.	8a/	-a-	.
8c\ 8E\	-lem	8a/ 8f/	.	.	8E-\	-lem	.	8c\	-lem	.	8f/	-lem	.	8a/	-lem	.
!	!	!	!	!	!LO:LB:g=original	!	!	!	!	!	!	!	!	!	!	!
=47	=47	=47	=47	=47	=47	=47	=47	=47	=47	=47	=47	=47	=47	=47	=47	=47
2B-\ 2D\	Pa-	2b-/ 2f/	.	.	2D\	Pa-	.	2B-\	Pa-	.	2f/	Pa-	.	2b-\	Pa-	.
4B-\ 4D\	-tri	4b-/ 4f/	.	.	4D\	-tri	.	4B-\	-tri	.	4f/	-tri	.	4b-\	-tri	.
.	.	.	.	f	.	.	.	.	.	.	.	.	.	.	.	.
!	!	!	!	!	!	!	!	!LO:LB:g=original	!	!	!	!	!	!	!	!
=48	=48	=48	=48	=48	=48	=48	=48	=48	=48	=48	=48	=48	=48	=48	=48	=48
*^	*	*^	*	*	*	*	*	*	*	*	*	*	*	*	*	*
!	!	!	!	!	!	!	!	!	!	!	!	!	!	!	!	!	!	!LO:DY:rj
2f/	4D-X\	per-	2bn/ 2a/	2ryy	.	.	4D-X\	per-	.	2f\	per	.	2a-X/	per	.	2bn\	per	f
.	4d-X\	.	.	.	.	.	4d-X\	.	.	.	.	.	.	.	.	.	.	.
4f/	4d-\	-quem	4b/	4a\	.	.	4d-\	-quem	.	4f\	quem	.	4a-/	quem	.	4b\	cuem	.
*	*	*	*v	*v	*	*	*	*	*	*	*	*	*	*	*	*	*	*
*v	*v	*	*	*	*	*	*	*	*	*	*	*	*	*	*	*	*
=49	=49	=49	=49	=49	=49	=49	=49	=49	=49	=49	=49	=49	=49	=49	=49	=49
!	!	!	!	!LO:DY:rj	!	!	!	!	!	!	!	!	!	!	!	!LO:DY:rj
4f\ 4c\	om-	4cc\ 4a\	.	ff	4c\	om-	.	4f\	o-	.	4an/	om-	.	4cc\	om-	ff
4g\ 4B-\	-ni-	4ee\ 4cc\	.	.	4B-\	-ni-	.	4g\	-mni-	.	4cc\	-ni-	.	4ee\	-ni-	.
4f\ 4A\	-a	4ff\ 4cc\	.	.	4A\	-a	.	4f\	-a	.	4cc\	-a	.	4ff\	-a	.
!	!	!	!	!	!	!	!	!	!	!	!LO:LB:g=original	!	!	!	!	!
=50	=50	=50	=50	=50	=50	=50	=50	=50	=50	=50	=50	=50	=50	=50	=50	=50
!	!	!	!	!LO:DY:rj	!	!	!	!	!	!	!LO:TX:a:t=P:problem:w tym takcie przed każdą nutą skreślona przednutka	!	!	!	!	!
4f\ 4B-\	fa-	4dd/ 4g/	.	f	4B-\	fa-	.	4f\	fa-	.	4g/	fa-	.	(4dd\	fa-	.
!	!	!	!	!	!LO:TX:a:t=P:problem:kasownik dopisany ołówkiem	!	!	!	!	!	!	!	!	!	!	!
4d\	.	4b-/ 4f/	.	.	4dn\	.	.	4d\	.	.	4f/	.	.	4b-\)	.	.
4B-\	-cta	4g/ 4d/	.	.	4B-\	-cta	.	4B-\	-cta	.	4d/	-cta	.	4g\	-cta	.
!	!	!	!	!	!	!	!	!	!	!	!	!	!	!LO:LB:g=original	!	!
=51	=51	=51	=51	=51	=51	=51	=51	=51	=51	=51	=51	=51	=51	=51	=51	=51
*	*	*^	*	*	*	*	*	*	*	*	*	*	*	*	*	*
!	!	!	!	!	!LO:DY:rj	!	!	!	!	!	!	!	!	!	!	!	!LO:HP:a:t=cres
2A\ 2C\	fac-	2f/ 2c/	2ryy	.	p	2C/	fa-	.	2A\	fa-	.	2c/	fa-	.	2f/	fa-	<
.	.	.	.	.	.	.	.	.	.	.	.	.	.	.	.	.	p
!	!	!	!	!	!	!	!	!	!	!	!	!LO:TX:a:t=P:problem:kasownik dopisany ołówkiem	!	!	!	!	!
4B-\ 4C\	-ta	8a/L	4e\	.	.	4C/	-cta	.	4B-\	-cta	.	4en/	-cta	.	(8a/L	-cta	.
.	.	8g/J	.	.	.	.	.	.	.	.	.	.	.	.	8g/J)	.	.
=52	=52	=52	=52	=52	=52	=52	=52	=52	=52	=52	=52	=52	=52	=52	=52	=52	=52
4A\ 4F\	sunt	4f/	4f\	.	.	4F\	sunt	.	4A\	sunt	.	4f/	sunt	.	4f/	sunt	.
4r	.	4r	4ryy	.	.	4r	.	.	4r	.	.	4r	.	.	4r	.	.
4F/	Qui	4f/	4f\	.	.	4F\	Qui	.	4f\	Qui	.	4f/	Qui	.	4f/	Qui	.
*	*	*v	*v	*	*	*	*	*	*	*	*	*	*	*	*	*	*
!LO:PB:g=original	!	!LO:PB:g=original	!	!	!LO:LB:g=original	!	!	!	!	!	!	!	!	!	!	!
=53	=53	=53	=53	=53	=53	=53	=53	=53	=53	=53	=53	=53	=53	=53	=53	=53
*^	*	*	*	*	*	*	*	*	*	*	*	*	*	*	*	*
4.e-X/	2F\	prop-	4.cc/ 4.g/	.	.	2F\	pro-	.	4.e\	pro-	.	4.g/	prop-	.	(4.cc\	prop-	.
8d/	.	[[ter]]	8b-/ 8f/	.	.	.	.	.	8d\	.	.	8f/	.	.	8b-\)	.	.
!	!	!	!	!	!	!	!	!	!	!	!	!LO:TX:a:t=P:problem:bemol dopisany ołówkiem	!	!	!	!	!
8c/	8F\	-ter	8a/ 8e/	.	.	8F\	-pter	.	8c\	-pter	.	8e-/	-ter	.	8a\	-ter	.
8B-/	8F\	nos	8g/ 8d/	.	.	8F\	nos	.	8B-\	nos	.	8d/	nos	.	8g\	nos	.
!	!	!	!	!	!	!	!	!	!LO:LB:g=original	!	!	!	!	!	!	!	!
=54	=54	=54	=54	=54	=54	=54	=54	=54	=54	=54	=54	=54	=54	=54	=54	=54	=54
!	!	!	!	!	!	!	!	!	!	!	!	!LO:TX:a:t=P:problem:bemol dopisany ołówkiem	!	!	!	!	!
4.B-/	8.F\	ho-	8.g/ 8.e/	.	.	8.F\	ho-	.	8.B-\	ho-	.	8.e-X/	ho-	.	8.g/	ho-	.
.	16B-\ 16F\	-mi-	16g/ 16e/	.	.	16F\	-mi-	.	16B-\	-mi-	.	16e-/	-mi-	.	16g/	-mi-	.
.	4A\ 4F\	-nes	4f/ 4e/	.	.	4F\	-nes	.	4A\	-nes	.	4e-/	-nes	.	4f/	-nes	.
8ryy	.	.	.	.	.	.	.	.	.	.	.	.	.	.	.	.	.
4F/	4F\	et	4f/	.	.	4F\	e	.	4f\	et	.	4f/	et	.	4f/	et	.
!	!	!	!	!	!	!	!	!	!	!	!	!LO:LB:g=original	!	!	!	!	!
=55	=55	=55	=55	=55	=55	=55	=55	=55	=55	=55	=55	=55	=55	=55	=55	=55	=55
8g\ 8F\	4ryy	prop-	8ee-X\ 8b-\	.	.	8F\	pro-	.	8g\	prop-	.	8b-\	prop-	.	8ee\	prop-	.
8g\ 8F\	.	-ter	8ee-\ 8b-\	.	.	8F\	-pter	.	8g\	-ter	.	8b-\	-ter	.	8ee\	-ter	.
8g/L	4F\	no-	8ee-\L 8b-\L	.	.	4F\	nos-	.	(8g\L	nos-	.	8b-\L	no-	.	(8ee\L	no-	.
8f/J	.	.	8dd\J 8a\J	.	.	.	.	.	8f\J)	.	.	8a\J	.	.	8dd\J)	.	.
8e-X\ 8F\	4ryy	-stram	8cc\ 8g\	.	.	8F\	-tram	.	8e\	-tram	.	8g/	-stram	.	8cc\	-stram	.
8d\ 8F\	.	sa-	8b-\ 8f\	.	.	8F\	sa-	.	8d\	sa-	.	8f/	sa-	.	8b-\	sa-	.
*v	*v	*	*	*	*	*	*	*	*	*	*	*	*	*	*	*	*
!	!	!	!	!	!	!	!	!	!	!	!	!	!	!LO:LB:g=original	!	!
=56	=56	=56	=56	=56	=56	=56	=56	=56	=56	=56	=56	=56	=56	=56	=56	=56
4d\ 4F\	-lu-	4b-\ 4f\	.	.	4F\	-lu-	.	4d\	-lu-	.	4f/	-lu-	.	4b-\	-lu-	.
4c\ 4F\	-tem	4a\ 4e\	.	.	4F\	-tem	.	4c\	-tem	.	4e/	-tem	.	4a\	-tem	.
8.r	.	8.r	.	f	8.r	.	.	8.r	.	.	8.r	.	.	8.r	.	f
16c\ 16A\	de	16gg\ 16ee-X\	.	.	16A\	de-	.	16c\	de-	.	16ee-X\	de-	.	16gg\	de-	.
!	!	!	!	!	!LO:LB:g=original	!	!	!	!	!	!	!	!	!	!	!
=57	=57	=57	=57	=57	=57	=57	=57	=57	=57	=57	=57	=57	=57	=57	=57	=57
!	!	!	!	!	!	!	!	!	!	!	!	!	!LO:DY:a:rj	!	!	!
4c\ 4A\	scen-	4gg\ 4ee-X\	.	.	4A\	-scen-	.	4c\	-scen-	.	4ee\	-scen-	f	4gg\	-scen-	.
4d\ 4B-\	-dit	4ff\ 4dd\	.	.	4B-\	-dit	.	4d\	-dit	.	4dd\	-dit	.	4ff\	-dit	.
4A\ 4F#X\	de	4ee-X\ 4cc\	.	p	4F#X\	de	.	4A\	de	.	4cc\	de	.	4ee-X\	de	.
=58	=58	=58	=58	=58	=58	=58	=58	=58	=58	=58	=58	=58	=58	=58	=58	=58
*	*^	*	*	*	*	*	*	*	*	*	*	*	*	*	*	*
!	!	!	!	!	!	!	!	!	!	!	!	!	!	!	!	!	!LO:DY:rj
4A\ 4F#X\	[[scen-	ce-	4ee\ 4cc\	.	.	4F#X\	ce-	.	4A\	ce-	.	4cc\	ce-	.	4ee-X\	ce-	p
4B-\ 4G\	-dit]]	-lis	4dd\ 4b-\	.	.	4G\	-lis	.	4B-\	-lis	.	4b-\	-lis	.	4dd\	-lis	.
4d\ 4G\	.	de	4b-\ 4g\	.	.	4G\	de-	.	4d\	de-	.	4g\	de-	.	4b-\	de-	.
*	*v	*v	*	*	*	*	*	*	*	*	*	*	*	*	*	*	*
!LO:PB:g=original	!	!LO:PB:g=original	!	!	!	!	!	!LO:LB:g=original	!	!	!	!	!	!	!	!
=59	=59	=59	=59	=59	=59	=59	=59	=59	=59	=59	=59	=59	=59	=59	=59	=59
2.c\ 2.E-X\	scen-	2.cc/ 2.g/	.	pp	2.E-X\	-scen-	.	2.c\	-scen-	.	2.g/	-scen-	.	2.cc\	-scen-	.
!	!	!	!	!	!	!	!	!	!	!	!LO:LB:g=original	!	!	!	!	!
=60	=60	=60	=60	=60	=60	=60	=60	=60	=60	=60	=60	=60	=60	=60	=60	=60
*^	*	*	*	*	*	*	*	*	*	*	*	*	*	*	*	*
2c/	4En\	-dit	2b-/ 2g/	.	.	4En\	-dit	.	2c\	-dit	.	2g/	-dit	.	2b-\	-dit	.
.	8C\L	.	.	.	.	8C\L	.	.	.	.	.	.	.	.	.	.	.
.	8D-X\	.	.	.	.	8D-X\J	.	.	.	.	.	.	.	.	.	.	.
4c/	8Dn\	de	4b-/ 4g/	.	.	8Dn\L	de	.	4c\	de	.	4g/	de	.	4b-\	de	.
.	8E\J	.	.	.	.	8E\J	.	.	.	.	.	.	.	.	.	.	.
=61	=61	=61	=61	=61	=61	=61	=61	=61	=61	=61	=61	=61	=61	=61	=61	=61	=61
[2.c/	4F\	ce-	[2.a/ [>2.f/	.	.	(4F\	ce-	.	[2.c\	ce-	.	[>2.f/	ce-	.	[>2.a/	ce-	.
.	4C\	.	.	.	.	4C\	.	.	.	.	.	.	.	.	.	.	.
.	4AA\	.	.	.	.	4AA\)	.	.	.	.	.	.	.	.	.	.	.
=62	=62	=62	=62	=62	=62	=62	=62	=62	=62	=62	=62	=62	=62	=62	=62	=62	=62
4c/]	4FF/	-lis	2a/] 2f\]	.	.	4FF/	-lis	.	4c\]	-lis	.	2f/]	-lis	.	2a/]	-lis	.
4rc	4r	.	.	.	.	4r	.	.	4r	.	.	.	.	.	.	.	.
!	!	!	!	!	!	!LO:TX:a:t=P:problem:pojedyncza kreska taktowa	!	!	!LO:TX:a:t=Et incarnatus	!	!	!	!	!	!	!	!
4rc	4r	.	4r	.	.	4r	.	.	4r	.	.	4r	.	.	4r;	.	.
*v	*v	*	*	*	*	*	*	*	*	*	*	*	*	*	*	*	*
!	!	!	!	!	!	!	!	!LO:PB:g=original	!	!	!	!	!	!LO:LB:g=original	!	!
=63||	=63||	=63||	=63||	=63||	=63||	=63||	=63||	=63||	=63||	=63||	=63||	=63||	=63||	=63||	=63||	=63||
*k[b-e-]	*	*k[b-e-]	*	*	*k[b-e-]	*	*	*k[b-e-]	*	*	*k[b-e-]	*	*	*k[b-e-]	*	*
*M4/4	*	*M4/4	*	*	*M4/4	*	*	*M4/4	*	*	*M4/4	*	*	*M4/4	*	*
*met(c)	*	*met(c)	*	*	*met(c)	*	*	*met(c)	*	*	*met(c)	*	*	*met(c)	*	*
*	*	*^	*	*	*	*	*	*	*	*	*	*	*	*	*	*
!	!	!	!	!	!	!LO:TX:a:i:t=Andante	!	!	!	!	!	!	!	!	!	!	!
!	!	!LO:TX:a:t=Et in car natus	!	!	!LO:DY:rj	!LO:TX:a:t=Et incarnatus	!	!LO:DY:rj	!LO:TX:a:i:t=Adagio	!	!LO:DY:rj	!LO:TX:a:t=solo	!	!LO:DY:rj	!LO:TX:a:t=1	!	!
4B-\ 4F 4BB-\	Et	1rff	4d\	.	ppp	4F 4BB-\	Et	p	4B-\	Et	p	4d/	Et	pp	1r	.	.
8.A\ 8.F 8.C\	in-	.	8.e-\	.	.	8.F 8.C\	in-	.	8.A\	in-	.	8.e-/	in-	.	.	.	.
16A\ 16F 16C\	-car-	.	16e-\	.	.	16F 16C\	-car-	.	16A\	-car-	.	16e-/	-car-	.	.	.	.
4B-\ 4D\	-na-	.	4f\	.	.	4B- 4D\	-na-	.	4B-\	-na-	.	4f/	-na-	.	.	.	.
4B-\ 4A-X 4D\	-tus	.	4f#X\	.	.	4A-X 4D\	-tus	.	4B-\	-tus	.	4f#X/	-tus	.	.	.	.
=64	=64	=64	=64	=64	=64	=64	=64	=64	=64	=64	=64	=64	=64	=64	=64	=64	=64
2.B-\ 2.G 2.E-\	est	4r	2.g\	.	.	2.G 2.En\	est	.	2.B-\	est	.	2.g/	est	.	4r	.	.
!	!	!LO:TX:a:i:t=solo	!	!	!	!	!	!	!	!	!	!	!	!	!	!	!
.	.	8r	.	.	.	.	.	.	.	.	.	.	.	.	8r	.	.
!	!	!LO:TX:b:i:t=marcatto	!	!	!	!	!	!	!	!	!	!	!	!	!LO:TX:a:t=solo	!	!
.	.	8b-/	.	Et	.	.	.	.	.	.	.	.	.	.	8b-^^\	Et	.
.	.	8a/	.	in-	.	.	.	.	.	.	.	.	.	.	8a^^\	in-	.
.	.	8b-/	.	-car-	.	.	.	.	.	.	.	.	.	.	8b-^^\	-car-	.
.	.	8qqdd/	.	.	.	.	.	.	.	.	.	.	.	.	.	.	.
4r	.	8cc/	4ryy	-na-	.	4r	.	.	4r	.	.	4r	.	.	8cc^^\	-na-	.
.	.	8b-/	.	-tus	.	.	.	.	.	.	.	.	.	.	8b-^^\	-tus	.
!LO:LB:g=original	!	!LO:LB:g=original	!LO:LB:g=original	!	!	!	!	!	!	!	!	!LO:LB:g=original	!	!	!	!	!
=65	=65	=65	=65	=65	=65	=65	=65	=65	=65	=65	=65	=65	=65	=65	=65	=65	=65
*^	*	*	*	*	*	*	*	*	*	*	*	*	*	*	*	*	*
2.ryy	4c 4F\	de	4a/	4f\	est	.	4c 4F\	de	.	4c\	de	.	4f/	de	.	4a/	est	.
!	!	!	!	!	!	!	!	!	!	!	!	!	!LO:N:vis=4	!	!	!	!	!
.	4c\ 4B- 4G\	spi-	4ree	4en\	.	.	4B- 4G\	spi-	.	4c\	spi-	.	8en/	spi-	.	4r	.	.
!	!	!	!	!	!	!	!	!	!	!	!	!	!LO:N:vis=4	!	!	!	!	!
.	.	.	.	.	.	.	.	.	.	.	.	.	8e-X/	-ri-	.	.	.	.
.	4c\ 4A\	-ri-	2rgg	4e-SS<\	.	.	4A\	-ri-	.	4c\	-ri-	.	4r	.	.	2r	.	.
!	!	!	!	!LO:N:vis=8.	!	!	!	!	!	!	!	!	!	!	!	!	!	!
8e-/L	4F 4AA\	-tu	.	8g\	.	.	4F 4AA\	-tu	.	(8.e-\L	-tu	.	8.g/	.	.	.	.	.
8d/J	.	.	.	8f\	.	.	.	.	.	.	.	.	.	.	.	.	.	.
.	.	.	.	.	.	.	.	.	.	16d\Jk)	.	.	16f/	-tu	.	.	.	.
*v	*v	*	*	*	*	*	*	*	*	*	*	*	*	*	*	*	*	*
=66	=66	=66	=66	=66	=66	=66	=66	=66	=66	=66	=66	=66	=66	=66	=66	=66	=66
4c\ 4F 4BB-\	san-	4r	4e-\	.	.	4F 4BB-\	san-	.	4c\	san-	.	4e-/	san-	.	4r	.	.
4B-\ 4F 4BB-\	-cto	8r	8d\	.	.	4F 4BB-\	-cto	.	4B-\	-cto	.	8d/	-cto	.	8r	.	.
.	.	8f/	8r	de	.	.	.	.	.	.	.	8r	.	.	8f/	de	.
2r	.	(<8g/L	4r	spi-	.	4r	.	.	2r	.	.	2r	.	.	(8g/L	spi-	.
.	.	8a/J)	.	.	.	.	.	.	.	.	.	.	.	.	8a/J)	.	.
.	.	8b-/	4ryy	-ri-	.	4r	.	.	.	.	.	.	.	.	8b-/	-ri-	.
.	.	8cc/	.	-tu	.	.	.	.	.	.	.	.	.	.	8cc/	-tu	.
!	!	!	!	!	!	!LO:LB:g=original	!	!	!LO:LB:g=original	!	!	!	!	!	!LO:LB:g=original	!	!
=67	=67	=67	=67	=67	=67	=67	=67	=67	=67	=67	=67	=67	=67	=67	=67	=67	=67
*	*	*	*	*	*^	*	*	*	*	*	*	*	*	*	*	*	*
4d\ 4B-\	San-	2dd/	4g\	.	.	.	4d 4B-\	San-	.	2d\	San-	.	(4f/	San-	.	2dd\	San-	.
!	!	!	!	!	!LO:HP:a	!	!	!	!	!	!	!	!	!	!	!	!	!
4d\ 4A\	.	.	4f#X\	.	<	.	4c 4A\	.	.	.	.	.	4f#X/)	.	.	.	.	.
!	!	!	!	!	!	!LO:HP:t=cres	!	!	!	!	!	!	!	!	!	!	!	!
4d\ 4B- 4G\	-cto	4g/	4g\	.	.	<	4B- 4G\	-cto	.	4d\	-cto	.	4g/	-cto	.	4g/	-cto	.
!	!	!	!LO:N:vis=8	!	!	!	!	!	!	!	!	!	!	!	!	!	!	!
8.d\ 8.Bn 8.F\	ex	8.g/	8.g\	.	.	.	8.Bn 8.F\	ex	.	8.d\	ex	.	8.g/	ex	.	8.g/	ex	.
!	!	!	!LO:N:vis=8	!	!	!	!	!	!	!	!	!	!	!	!	!	!	!
16d\ 16B 16F\	Ma-	16g/	16g\	.	[[	.	16B 16F\	Ma-	.	16d\	Ma-	.	16g/	Ma-	.	16g/	Ma-	.
*	*	*	*	*	*v	*v	*	*	*	*	*	*	*	*	*	*	*	*
*	*	*v	*v	*	*	*	*	*	*	*	*	*	*	*	*	*	*
=68	=68	=68	=68	=68	=68	=68	=68	=68	=68	=68	=68	=68	=68	=68	=68	=68
!	!	!	!	!	!	!	!	!	!	!	!	!	!	!LO:TX:a:i:t=marcato	!	!
2c\ 2B- 2En\	-ry-	2cc/ 2g/	.	.	2B-X 2En\	-ri-	.	2c\	-ry-	.	2g/	-ry-	.	2cc\	-ry-	.
4A\ 4E-X\	-a	4f/ 4c/	.	.	4A 4E-X\	-a	.	4A\	-a	.	4c/	-a	.	4f/	-a	.
8.A\ 8.E-\	ex	8.f/ 8.c/	.	.	8.A 8.E-\	ex	.	8.A\	ex	.	8.c/	ex	.	8.f/	ex	.
16A\ 16E-\	Ma-	16f/ 16c/	.	.	16A 16E-\	Ma-	.	16A\	Ma-	.	16c/	Ma-	.	16f/	Ma-	.
!LO:LB:g=original	!	!LO:LB:g=original	!	!	!	!	!	!	!	!	!LO:LB:g=original	!	!	!	!	!
=69	=69	=69	=69	=69	=69	=69	=69	=69	=69	=69	=69	=69	=69	=69	=69	=69
4.B-\ 4.D\	-ri-	4.b-/ 4.f/	.	<	4.B- 4.D\	-ri-	.	4.B-\	-ri-	.	4.f/	-ri-	.	4.b-\	-ry-	.
!	!	!	!	!	!	!	!	!	!	!	!	!	!	!	!	!LO:HP:a
8B-\ 8D\	-a	8b-/ 8f/	.	.	8B- 8D\	-a	.	8B-\	-a	.	8f/	-a	.	8b-\	-a	<
4A-X\ 4D\	Vir-	4bn/ 4f/	.	.	4D\	Vir-	.	4A-X\	Vir-	.	4f/	vir-	.	4bn\	vir-	.
4A-\ 4D\	-gi-	4b/ 4f/	.	[[	4D\	-gi-	.	4A-\	-gi-	.	4f/	-gi-	.	4b\	-gi-	[[
!LO:LB:g=original	!	!LO:LB:g=original	!	!	!	!	!	!	!	!	!	!	!	!	!	!
=70	=70	=70	=70	=70	=70	=70	=70	=70	=70	=70	=70	=70	=70	=70	=70	=70
2G\ 2E-\	-ne	2cc/ 2g/	.	f	2E-\	-ne	.	2G\	-ne	.	2g/	-ne	.	2cc\	-ne	.
!	!	!	!	!	!	!	!	!	!	!	!	!	!	!LO:TX:a:i:t=legato	!	!
8r	.	8	.	.	8r	.	.	8r	.	.	8r	.	.	8r	.	.
8G\ 8En\	et	8b-/ 8c#X/	.	pp	8En\	et	.	8G\	et	.	8c#X/	et	.	8b-^^\	et	.
8A\ 8E\	ho-	8a/ 8c#/	.	.	8E\	ho-	.	8A\	ho-	.	8c#/	ho-	.	8a^^\	ho-	.
8B-\ 8E\	-mo	8g/ 8c#/	.	.	8E\	-mo	.	8B-\	-mo-	.	8c#/	-mo	.	8g^^\	-mo	.
!	!	!	!	!	!LO:LB:g=original	!	!	!LO:LB:g=original	!	!	!	!	!	!LO:LB:g=original	!	!
=71	=71	=71	=71	=71	=71	=71	=71	=71	=71	=71	=71	=71	=71	=71	=71	=71
*	*	*^	*	*	*	*	*	*	*	*	*	*	*	*	*	*
*2\left	*	*	*	*	*	*	*	*	*	*	*	*	*	*	*	*	*
2B-\ 2F\	fa-	4g/	2d\	.	.	[2F\	fa-	.	2B-\	-fa-	.	2d/	fa-	.	(4g/	fa-	.
.	.	4f#X/	.	.	.	.	.	.	.	.	.	.	.	.	4f#X/)	.	.
4.A\ 4.F\	.	4.g/ 4.e-^/	2ryy	.	.	4.F\]	.	.	4.A\	.	.	4e-X/	.	.	4.g/	.	.
.	.	.	.	.	.	.	.	.	.	.	.	4c/	-ctus	.	.	.	.
8A\ 8F\	-ctus	8fn/ 8c/	.	.	.	8F\	-ctus	.	8A\	-ctus	.	.	.	.	8fn/	-ctus	.
*	*	*v	*v	*	*	*	*	*	*	*	*	*	*	*	*	*	*
=72	=72	=72	=72	=72	=72	=72	=72	=72	=72	=72	=72	=72	=72	=72	=72	=72
*2\right	*	*	*	*	*	*	*	*	*	*	*	*	*	*	*	*
2.F\ 2.BB-\	est	2.d/ 2.B-/	.	.	2.F 2.BB-\	est	.	2.F/	est	.	2.B-/	est	.	2.d/	est	.
!	!	!LO:N:vis=8	!	!	!	!	!	!	!	!	!	!	!	!	!	!
8.A\ 8.E-\	ex	8.f/ 8.c/	.	.	8.E-\	ex	.	8.A\	ex	.	8c/	ex	.	8.f/	ex	.
.	.	.	.	.	.	.	.	.	.	.	8c/	Ma-	.	.	.	.
16A\ 16E-\	Ma-	16f/ 16c/	.	.	16E-\	Ma-	.	16A\	Ma-	.	.	.	.	16f/	Ma-	.
=73	=73	=73	=73	=73	=73	=73	=73	=73	=73	=73	=73	=73	=73	=73	=73	=73
!	!	!	!	!	!	!	!	!	!	!	!	!	!	!	!	!LO:HP:a
4B-\ 4D\	-ry-	4b-/ 4f/	.	<	4D\	-ri-	.	4B-\	-ri-	.	4f/	-ri-	.	4b-\	-ry-	<
4B-\ 4D\	-a	4b-/ 4f/	.	.	4D\	-a	.	4B-\	-a	.	4f/	-a	.	4b-\	-a	.
4.A-X\ 4.D\	Vir-	4.bn/ 4.f/	.	.	4.D\	Vir-	.	4.A-X\	Vir-	.	4.f/	Vir-	.	4.bn\	vir-	.
8A-\ 8D\	-gi-	8b/ 8f/	.	[[	8D\	-gi-	.	8A-\	-gi-	.	8f/	-gi-	.	8b\	-gi-	[[
!LO:LB:g=original	!	!LO:LB:g=original	!	!	!	!	!	!	!	!	!LO:PB:g=original	!	!	!	!	!
=74	=74	=74	=74	=74	=74	=74	=74	=74	=74	=74	=74	=74	=74	=74	=74	=74
!	!	!	!	!	!	!	!	!	!	!	!	!	!	!	!	!LO:HP:a
2G\ 2E-\	-ne	2cc/ 2g/	.	sfz	2E-\	-ne	.	2G/	-ne	.	2g/	-ne	.	2cc\	-ne	sfz >
8r	.	8r 8r	.	.	8r	.	.	8r	.	.	8r	.	.	8r	.	.
8G\ 8C\	et	8ee-/ 8g/	.	] p	8C\	et	.	8G/	et	.	8g/	et	.	8ee-\	et	]
!	!	!	!	!	!	!	!	!	!	!	!	!	!	!LO:TX:a:i:t=marcato	!	!
8B-\ 8D\	ho-	8dd/ 8g/	.	.	8D\	ho-	.	8Bn\	ho-	.	8g/	ho-	.	8dd\	ho-	.
8c\ 8E-X\	-mo	8cc/ 8g/	.	.	8E-\	-mo	.	8c\	-mo	.	8g/	-mo	.	8cc\	-mo	.
!	!	!	!	!	!	!	!	!LO:LB:g=original	!	!	!	!	!	!	!	!
=75	=75	=75	=75	=75	=75	=75	=75	=75	=75	=75	=75	=75	=75	=75	=75	=75
*^	*	*^	*	*	*	*	*	*	*	*	*	*	*	*	*	*
4d/	2F\	fa-	(4b-/	4f\	.	pp	2F\	fa-	.	4d\	fa-	.	4f/	fa-	.	4b-/	fa-	.
4B-/	.	.	16b-/LL)	4d\	.	.	.	.	.	4B-\	.	.	4d/	.	.	16b-/LL	.	.
.	.	.	16f/	.	.	.	.	.	.	.	.	.	.	.	.	(16f/	.	.
.	.	.	16en/	.	.	.	.	.	.	.	.	.	.	.	.	16e-/	.	.
.	.	.	16f/JJ	.	.	.	.	.	.	.	.	.	.	.	.	16f/JJ)	.	.
!	!	!	!	!	!	!LO:HP:a	!	!	!	!	!	!	!	!	!	!LO:LB:g=original	!	!
2ryy	4.A\ 4.F\	.	4.dd\ 4.e\	2ryy	.	>	4.F\	.	.	4.A\	.	.	4.e-/	.	.	4.dd^\	.	.
.	8A\ 8F\	-ctus	8cc\ 8e\	.	.	]	8F\	-ctus	.	8A\	-ctus	.	8e-/	-ctus	.	8cc\	-ctus	.
*	*	*	*v	*v	*	*	*	*	*	*	*	*	*	*	*	*	*	*
!	!	!	!	!	!	!LO:LB:g=original	!	!	!	!	!	!	!	!	!	!	!
=76	=76	=76	=76	=76	=76	=76	=76	=76	=76	=76	=76	=76	=76	=76	=76	=76	=76
2B-\	2.BB-\	est	2.b-/ 2.d/	.	.	2.BB-/	est	.	2B-\	est	.	2.d/	est	.	2.b-\	est	.
4r	.	.	.	.	.	.	.	.	4r	.	f	.	.	.	.	.	.
8.d/	4r	Cru-	4r	.	f	4r	.	.	8.d\	Cru-	.	4r	.	.	4r	.	.
16d/	.	-ci-	.	.	.	.	.	.	16d\	-ci-	.	.	.	.	.	.	.
=77	=77	=77	=77	=77	=77	=77	=77	=77	=77	=77	=77	=77	=77	=77	=77	=77	=77
!	!	!	!	!	!	!	!	!LO:DY:rj	!	!	!	!	!	!LO:DY:rj	!	!	!
2d/	4r	-fi-	4r	-fi-	.	4r	.	p	2d\	-fi-	.	4r	.	p	4r	.	.
.	8.G\	Cru-	8.b-/ 8.d/	.	p	8.G\	cru-	.	.	.	.	8.d/	cru-	.	8.b-\	Cru-	p
.	16G\	-ci-	16b-/ 16d/	-xus	.	16G\	-ci-	.	.	.	.	16d/	-ci-	.	16b-\	-ci-	.
4d/	4F#X\	-fi-	4a/ 4d/	.	.	4F#X\	-fi-	.	4d\	-xus	.	4d/	-fi-	.	4a\	-fi-	.
8.d/	4A\	-xus	4f#X/ 4d/	.	.	4A\	-xus	.	8.d\	cru-	.	4d/	-xus	.	4f#X/	-xus	.
16d/	.	.	.	.	.	.	.	.	16d\	-ci-	.	.	.	.	.	.	.
!	!	!	!	!	!	!	!	!	!	!	!	!LO:LB:g=original	!	!	!	!	!
=78	=78	=78	=78	=78	=78	=78	=78	=78	=78	=78	=78	=78	=78	=78	=78	=78	=78
2d/	4r	.	4r	.	.	4r	.	.	2d\	-fi-	.	4r	.	.	4r	.	.
.	8.A\	cru-	8.cc/ 8.f#X/	.	.	8.A\	cru-	.	.	.	.	8.f#X/	cru-	.	8.cc\	cru-	p
.	16A\	-ci-	16cc/ 16f#/	.	.	16A\	-ci-	.	.	.	.	16f#/	-ci-	.	16cc\	-ci-	.
4d/	4G\	-fi-	4b-/ 4g/	.	.	4G\	-fi-	.	4d\	-xus	.	4g/	-fi-	.	4b-\	-fi-	.
4d/	8B-\	-xus	8dd/ 8g/	sub	.	8B-\	-xus	.	4d\	sub	.	8g/	-xus	.	8dd\	-xus	.
.	8B-\	sub	8dd/ 8g/	.	.	8B-\	sub	.	.	.	.	8g/	sub	.	8dd\	sub	.
!LO:LB:g=original	!	!	!LO:LB:g=original	!	!	!	!	!	!LO:LB:g=original	!	!	!	!	!	!LO:PB:g=original	!	!
=79	=79	=79	=79	=79	=79	=79	=79	=79	=79	=79	=79	=79	=79	=79	=79	=79	=79
*	*	*	*^	*	*	*	*	*	*	*	*	*	*	*	*	*	*
8c/	8.c\	Pon-	8.ee-X/ 8.g/	2ryy	.	.	8.c\	Pon-	.	8.c\	Pon-	.	8.g/	Pon-	.	8.ee-X\	Pon-	.
8ryy	.	.	.	.	.	.	.	.	.	.	.	.	.	.	.	.	.	.
.	16e-\ 16C\	-ti-	16a/ 16g/	.	.	.	16C/	-ti-	.	16e-\	-ci-	.	16g/	-ti-	.	16a/	-ti-	.
2.ryy	8e-\ 8C\	-o	8a/ 8g/	.	.	.	8C/	-o	.	8e-\	-o	.	8g/	-o	.	8a/	-o	.
.	8e-\ 8C\	pi-	8a/ 8g/	.	.	.	8C/	pi-	.	8e-\	pi-	.	8g/	pi-	.	8a/	pi-	.
.	4d\ 4D\	-la-	8a/L	4f#X\	.	.	4D\	-la-	.	4d\	-la-	.	4f#X/	-la-	.	(8a/L	-la-	.
.	.	.	8g#X/J	.	.	.	.	.	.	.	.	.	.	.	.	8g#X/J)	.	.
.	8d\ 8D\	-to	8a/ 8f#/	4ryy	.	.	8D\	-to	.	8d\	-to	.	8f#/	-to	.	8a/	-to	.
.	8d\ 8F#X\	sub	8dd/ 8f#/	.	.	.	8F#X\	sub	.	8d\	sub	.	8f#/	sub	.	8dd\	sub	.
*	*	*	*v	*v	*	*	*	*	*	*	*	*	*	*	*	*	*	*
!	!	!	!	!	!	!LO:LB:g=original	!	!	!	!	!	!	!	!	!	!	!
=80	=80	=80	=80	=80	=80	=80	=80	=80	=80	=80	=80	=80	=80	=80	=80	=80	=80
2.ryy	8.d\ 8.A 8.G\	Pon-	8.cc/ 8.f#X/	.	.	8.A 8.G\	Pon-	.	8.d\	Pon-	.	8.f#X/	Pon-	.	8.cc\	Pon-	.
.	16d\ 16G\	-ti-	16b-/ 16g/	.	.	16G\	-ti-	.	16d\	-ti-	.	16g/	-ti-	.	16b-\	-ti-	.
.	8d\ 8G\	-o	8b-/ 8g/	.	.	8G\	-o	.	8d\	-o	.	8g/	-o	.	8b-\	-o	.
.	8d\ 8A 8G\	pi-	8cc/ 8g/	.	.	8A 8G\	pi-	.	8d\	pi-	.	8g/	pi-	.	8cc\	pi-	.
.	4d\ 4B- 4G\	-la-	4dd/ 4g/	cru-	.	4B- 4G\	-la-	.	8d\	-la-	.	4g/	-la-	.	4dd\	-la-	.
.	.	.	.	.	.	.	.	.	16d\	-to	.	.	.	.	.	.	.
.	.	.	.	.	.	.	.	.	16r	.	f	.	.	.	.	.	.
8.d/	4G\	-to	4b-/ 4g/	-ci-	.	4G\	-to	.	8.d\	Cru-	.	4g/	-to	.	4b-\	-to	.
16d/	.	-ci-	.	.	.	.	.	.	16d\	-ci-	.	.	.	.	.	.	.
!	!	!	!	!	!	!	!	!	!	!	!	!LO:LB:g=original	!	!	!	!	!
=81	=81	=81	=81	=81	=81	=81	=81	=81	=81	=81	=81	=81	=81	=81	=81	=81	=81
2d/	4r	-fi-	4r	-fi-	.	4r	.	.	2d\	-fi-	.	4r	.	.	4r	.	.
.	8.G\	cru-	8.b-/ 8.d/	.	.	8.G\	cru-	.	.	.	.	8.d/	Cru-	.	8.b-/	cru-	.
.	16G\	-ci-	16b-/ 16d/	-xus	.	16G\	-ci-	.	.	.	.	16d/	-ci-	.	16b-/	-ci-	.
4d/	4F#X\	-fi-	4a/ 4d/	.	.	4F#X\	-fi-	.	4d\	-xus	.	4d/	-fi-	.	4a/	-fi-	.
!LO:N:vis=8	!	!	!	!	!	!	!	!	!	!	!	!	!	!	!	!	!
8.d/	4A\	-xus	4f#X/ 4d/	.	.	4A\	-xus	.	8.d\	cru-	.	4d/	-xus	.	4f#X/	-xus	.
16d/	.	.	.	.	.	.	.	.	16d\	-ci-	.	.	.	.	.	.	.
!	!	!	!	!	!	!	!	!	!LO:LB:g=original	!	!	!	!	!	!LO:LB:g=original	!	!
=82	=82	=82	=82	=82	=82	=82	=82	=82	=82	=82	=82	=82	=82	=82	=82	=82	=82
2d/	4r	.	4r	.	.	4r	.	.	2d\	-fi-	.	4r	.	.	4r	.	.
!	!	!	!LO:N:vis=8	!	!	!	!	!	!	!	!	!	!	!	!	!	!
.	8.A\	Cru-	8.cc/ 8.f#X/	.	.	8.A\	cru-	.	.	.	.	8.f#X/	Cru-	.	8.cc\	Cru-	.
.	16A\	-ci-	16cc/ 16f#/	.	.	16A\	-ci-	.	.	.	.	16f#/	-ci-	.	16cc\	-ci-	.
4d/	4G\	-fi-	4b-/ 4g/	.	.	4G\	-fi-	.	4d\	-xus	.	4g/	-fi-	.	4b-\	-fi-	.
!LO:N:vis=4	!	!	!	!	!	!	!	!	!	!	!	!	!	!	!	!	!
8d/	8G 8BB-\	-xus	8dd/ 8g/	.	.	8G 8BB-\	-xus	.	4d\	sub	.	8g/	-xus	.	8dd\	-xus	.
!LO:N:vis=4	!	!	!	!	!	!	!	!	!	!	!	!	!	!	!	!	!
8d/	8G 8BB-\	sub	8dd/ 8g/	.	.	8G 8BB-\	sub	.	.	.	.	8g/	sub	.	8dd\	sub	.
*v	*v	*	*	*	*	*	*	*	*	*	*	*	*	*	*	*	*
!LO:LB:g=original	!	!LO:LB:g=original	!	!	!LO:LB:g=original	!	!	!	!	!	!	!	!	!	!	!
=83	=83	=83	=83	=83	=83	=83	=83	=83	=83	=83	=83	=83	=83	=83	=83	=83
*	*	*^	*	*	*	*	*	*	*	*	*	*	*	*	*	*
!	!	!	!	!	!LO:DY:rj	!	!	!	!	!	!	!	!	!	!	!	!
8.e-\ 8.G 8.C\	Pon-	8.ee-X/ 8.g/	2ryy	.	f	8.G 8.C\	Pon-	.	8.e-\	Pon-	.	8.g/	Pon-	.	8.ee-X\	Pon-	.
16e-\ 16G 16C\	-ti-	16a/ 16g/	.	.	.	16G 16C\	-ti-	.	16e-\	-ti-	.	16g/	-ti-	.	16a/	-ti-	.
8e-\ 8G 8C\	-o	8a/ 8g/	.	.	.	8G 8C\	-o	.	8e-\	-o	.	8g/	-o	.	8a/	-o	.
8e-\ 8G 8C\	pi-	8a/ 8g/	.	.	.	8G 8C\	pi-	.	8e-\	pi-	.	8g/	pi-	.	8a/	pi-	.
4e-\ 4G 4C\	-la-	4a/	4g\	.	.	4G 4C\	-la-	.	4e-\	-la-	.	4g/	-la-	.	4a/	-la-	.
.	.	16qqcc/LL	.	.	.	.	.	.	.	.	.	.	.	.	(16qqcc/LL	.	.
.	.	16qqb-/JJ	.	.	.	.	.	.	.	.	.	.	.	.	16qqb-/JJ)	.	.
4e-\ 4G 4C\	-to	4a/	4g\	.	.	4G 4C\	-to	.	4e-\	-to	.	4g/	-to	.	4a/	-to	.
!	!	!	!	!	!	!	!	!	!	!	!	!LO:LB:g=original	!	!	!	!	!
=84	=84	=84	=84	=84	=84	=84	=84	=84	=84	=84	=84	=84	=84	=84	=84	=84	=84
2G\ 2D\	pas-	4.bn/	2f^\	.	.	2G 2D\	pas-	.	2G/	pas-	.	2fn/	pas-	.	(4.bn^\	pa-	.
.	.	16dd/LL	.	.	.	.	.	.	.	.	.	.	.	.	16dd\LL	.	.
.	.	16cc/JJ	.	.	.	.	.	.	.	.	.	.	.	.	16cc\JJ)	.	.
4G\ 4D\	-sus	4b/	4f\	.	.	4G 4D\	-sus	.	4G/	-sus	.	4f/	-sus	.	4b\	-sus	.
4r	.	4r	4ryy	.	.	4r	.	.	4r	.	p	4r	.	.	4r	.	.
*	*	*v	*v	*	*	*	*	*	*	*	*	*	*	*	*	*	*
!	!	!	!	!	!	!	!	!	!	!	!	!	!	!LO:LB:g=original	!	!
=85	=85	=85	=85	=85	=85	=85	=85	=85	=85	=85	=85	=85	=85	=85	=85	=85
4G\ 4E-\	et	4cc/ 4g/	.	.	4E-\	et	.	4G/	et	.	4g/	et	.	4cc\	et	.
4G\ 4E-\	se-	4b-/ 4c/	.	.	4E-\	se-	.	4G/	se-	.	4c/	se-	.	4b-\	se-	.
4A\ 4En\	-pul-	4a/ 4c/	.	.	4En\	-pul-	.	4A\	-pul-	.	4c/	-pul-	.	4a\	-pul-	.
4B-\ 4E\	-tus	4g/ 4c/	.	.	4E\	-tus	.	4B-\	-tus	.	4c/	-tus	.	4g\	-tus	.
!	!	!	!	!	!	!	!	!LO:LB:g=original	!	!	!	!	!	!	!	!
=86	=86	=86	=86	=86	=86	=86	=86	=86	=86	=86	=86	=86	=86	=86	=86	=86
4B-\ 4F\	est	4f/ 4d/	.	.	4F\	est	.	4B-\	est	.	4d/	est	.	4f/	est	.
4r	.	4r	.	p	4r	.	.	4r	.	.	4r	.	.	4r	.	p
4B-\ 4F\	et	4f/ 4d/	.	.	4F\	et	.	4B-\	et	.	4d/	et	.	4f/	et	.
4B-\ 4F\	se-	4f/ 4d/	.	.	4F\	se-	.	4B-\	se-	.	4d/	se-	.	4f/	se-	.
!	!	!	!	!	!LO:LB:g=original	!	!	!	!	!	!	!	!	!	!	!
=87	=87	=87	=87	=87	=87	=87	=87	=87	=87	=87	=87	=87	=87	=87	=87	=87
2c#X\ 2F\	-pul-	2g/ 2en/	.	.	2F\	-pul-	.	2c#X\	-pul-	.	2en/	-pul-	.	2g/	-pul-	.
2cn\ 2F\	-tus	2a/ 2e-X/	.	.	2F\	-tus	.	2cn\	-tus	.	2e-X/	-tus	.	2a/	-tus	.
!LO:PB:g=original	!	!LO:PB:g=original	!	!	!	!	!	!	!	!	!	!	!	!	!	!
=88	=88	=88	=88	=88	=88	=88	=88	=88	=88	=88	=88	=88	=88	=88	=88	=88
*	*	*^	*	*	*	*	*	*	*	*	*	*	*	*	*	*
4B-\ 4BB-\	est	4b-/	4d\	.	.	4BB-/	est	.	4B-\	est	.	4d/	est	.	4b-\	.	.
4r	.	4r	4ryy	.	pp	4r	.	.	4r	.	pp	4r	.	.	4r	.	.
4B-\ 4F 4BB-\	et	2r	4d\	.	.	4F 4BB-\	et	.	4B-\	et	.	4d/	et	.	2r	.	.
4B-\ 4F 4BB-\	se-	.	4d\	.	.	4F 4BB-\	se-	.	4B-\	se-	.	4d/	se-	.	.	.	.
!	!	!	!	!	!	!	!	!	!	!	!	!LO:LB:g=original	!	!	!	!	!
=89	=89	=89	=89	=89	=89	=89	=89	=89	=89	=89	=89	=89	=89	=89	=89	=89	=89
*^	*	*	*	*	*	*	*	*	*	*	*	*	*	*	*	*	*
!	!	!	!LO:TX:a:t=1	!	!	!	!	!	!	!	!	!	!	!	!	!LO:TX:b:t=2	!	!
2A\ 2C\	2ryy	-pul-	1rff	2c\	.	.	2A 2C\	-pul-	.	2A\	-pul-	.	2c/	-pul-	.	0r;	.	.
4.Bn/	4.A-X 4.C\	.	.	4.f\	.	.	4.A-X 4.C\	[[l]]	.	4.Bn\	.	.	4.f/	.	.	.	.	.
!	!	!	!	!	!	!	!	!	!	!	!	!	!LO:TX:a:t=P:problem:kasownik dopisany ołówkiem	!	!	!	!	!
8ryy	8c\ 8A- 8C\	-tus	.	8e-\	.	.	8A- 8C\	-tus	.	8c\	-tus	.	8en/	-tus	.	.	.	.
*v	*v	*	*	*	*	*	*	*	*	*	*	*	*	*	*	*	*	*
*	*	*v	*v	*	*	*	*	*	*	*	*	*	*	*	*	*	*
=90	=90	=90	=90	=90	=90	=90	=90	=90	=90	=90	=90	=90	=90	=90	=90	=90
!	!	!	!	!	!	!	!	!	!	!	!LO:TX:a:t=P:problem:kasownik dopisany ołówkiem	!	!	!	!	!
2.c\ 2.G 2.C\	est	2.e-\	.	.	2.G 2.C\	est	.	2.c\	est	.	2.en/	est	.	.	.	.
4r;	.	4r;	.	.	4r;	.	.	4r;	.	.	4r;	.	.	.	.	.
!	!	!	!	!	!LO:LB:g=original	!	!	!LO:LB:g=original	!	!	!	!	!	!LO:LB:g=original	!	!
=91||	=91||	=91||	=91||	=91||	=91||	=91||	=91||	=91||	=91||	=91||	=91||	=91||	=91||	=91||	=91||	=91||
*k[b-en]	*	*k[b-en]	*	*	*k[b-en]	*	*	*k[b-en]	*	*	*k[b-en]	*	*	*k[b-en]	*	*
*M3/4	*	*M3/4	*	*	*M3/4	*	*	*M3/4	*	*	*M3/4	*	*	*M3/4	*	*
*	*	*^	*	*	*	*	*	*	*	*	*	*	*	*	*	*
!	!	!LO:TX:a:t=Et resurrexit	!	!	!LO:DY:rj	!LO:TX:a:i:t=tempo 1mo	!	!LO:DY:rj	!LO:TX:a:i:t=Tempo 1mo	!	!LO:DY:rj	!	!	!LO:DY:rj	!LO:TX:a:i:t=tempo 1mo	!	!LO:DY:rj
4G\ 4E 4C\	Et	4c/	4c\	.	pp	4E 4C\	Et	p	4G/	Et	p	4c/	Et	p	4c/	Et	pp
4G\ 4E 4C\	re-	4c/	4c\	.	.	4E 4C\	re-	.	4G/	re-	.	4c/	re-	.	4c/	re-	.
4G\ 4E 4C\	-sur-	4c/	4c\	.	.	4E 4C\	-sur-	.	4G/	-sur-	.	4c/	-sur-	.	4c/	-sur-	.
=92	=92	=92	=92	=92	=92	=92	=92	=92	=92	=92	=92	=92	=92	=92	=92	=92	=92
2A-X\ 2F 2C\	-re-	2d-X^/	2d-\	.	.	2F 2C\	-re-	.	2A-X\	-re-	.	2d-X^>/	-re-	.	2d-X^>/	-re-	.
4G\ 4E 4C\	-xit	4c/	4c\	.	.	4E 4C\	-xit	.	4G/	-xit	.	4c/	-xit	.	4c/	-xit	.
*	*	*v	*v	*	*	*	*	*	*	*	*	*	*	*	*	*	*
=93	=93	=93	=93	=93	=93	=93	=93	=93	=93	=93	=93	=93	=93	=93	=93	=93
4G\ 4C\	ter-	4e/ 4c/	.	p	4G 4C\	ter-	.	4G/	ter-	.	4c/	ter-	.	4e/	ter-	.
4G\ 4C\	-ci-	4e/ 4c/	.	.	4G 4C\	-ci-	.	4G/	-ci-	.	4c/	-ci-	.	4e/	-ci-	.
4G\ 4C\	-a	4e/ 4c/	.	.	4G 4C\	-a	.	4G/	-a	.	4c/	-a	.	4e/	-a	.
!LO:LB:g=original	!	!LO:LB:g=original	!	!	!	!	!	!	!	!	!LO:LB:g=original	!	!	!	!	!
=94	=94	=94	=94	=94	=94	=94	=94	=94	=94	=94	=94	=94	=94	=94	=94	=94
2A-X\ 2C\	di-	2f^>/ 2Bn/	.	.	2A-X 2C\	di-	.	2A-X\	di-	.	2Bn^>/	di-	.	2f^>/	di-	.
4G\ 4C\	-e	4e/ 4c/	.	.	4G 4C\	-e	.	4G/	-e	.	4c/	-e	.	4e/	-e	.
=95	=95	=95	=95	=95	=95	=95	=95	=95	=95	=95	=95	=95	=95	=95	=95	=95
4E\ 4C\	se-	4g/ 4c/	.	p	4E 4C\	se-	.	4E/	se-	.	4c/	se-	.	4g/	se-	.
4E\ 4C\	-cun-	4g/ 4c/	.	.	4E 4C\	-cun-	.	4E/	-cun-	.	4c/	-cun-	.	4g/	-cun-	.
4E\ 4C\	-dum	4g/ 4c/	.	.	4E 4C\	-dum	.	4E/	-dum	.	4c/	-dum	.	4g/	-dum	.
!	!	!	!	!	!LO:LB:g=original	!	!	!LO:LB:g=original	!	!	!	!	!	!LO:LB:g=original	!	!
=96	=96	=96	=96	=96	=96	=96	=96	=96	=96	=96	=96	=96	=96	=96	=96	=96
4.F\ 4.C\	scrip-	4.a-X^>/ 4.c/	.	.	4.F 4.C\	scri-	.	4.F/	scrip-	.	4.c/	scri-	.	4.a-X/	scrip-	.
!	!	!	!	!LO:HP:t=cres&colon;	!	!	!	!	!	!	!	!	!	!	!	!
.	.	.	.	<	.	.	.	.	.	.	.	.	.	.	.	.
8F\ 8C\	-tu-	8a-/ 8c/	.	.	8F 8C\	-ptu-	.	8F/	-tu-	.	8c/	-ptu-	.	8a-/	-tu-	.
4F\ 4C\	-ras	4a-/ 4c/	.	.	4F 4C\	-ras	.	4F/	-ras	.	4c/	-ras	.	4a-/	-ras	.
=97	=97	=97	=97	=97	=97	=97	=97	=97	=97	=97	=97	=97	=97	=97	=97	=97
2c\ 2F#X 2C\	et	2a/ 2e-X/	.	<	2F#X 2C\	et	.	2c\	et	.	2e-X/	et	.	2an/	et	.
4c\ 4F# 4C\	as-	4a/ 4e-/	.	.	4F# 4C\	as-	.	4c\	as-	.	4e-/	as-	.	4a/	as-	.
=98	=98	=98	=98	=98	=98	=98	=98	=98	=98	=98	=98	=98	=98	=98	=98	=98
4c\ 4G 4C\	-cen-	4b-/ 4en/	.	.	4G 4C\	-cen-	.	4c\	-cen-	.	4en/	-cen-	.	4b-\	-cen-	.
4c\ 4G 4C\	-dit	4b-/ 4e/	.	.	4G 4C\	-dit	.	4c\	-dit	.	4e/	-dit	.	4b-\	-dit	.
!	!	!	!	!	!	!	!	!	!	!	!	!	!	!	!	!LO:HP:a
4c\ 4G 4C\	in	4b-/ 4e/	.	.	4G 4C\	in	.	4c\	in	.	4e/	in	.	4b-\	in	<
=99	=99	=99	=99	=99	=99	=99	=99	=99	=99	=99	=99	=99	=99	=99	=99	=99
2d\ 2A-X 2C\	ce-	2bn/ 2f/	.	.	2A-X 2C\	ce-	.	2d\	ce-	.	2f/	ce-	.	2bn\	ce-	.
4d\ 4A- 4C\	-lum	4b/ 4f/	.	[[	4A- 4C\	-lum	.	4d\	-lum	.	4f/	-lum	.	4b\	-lum	[
=100	=100	=100	=100	=100	=100	=100	=100	=100	=100	=100	=100	=100	=100	=100	=100	=100
!	!	!	!	!	!	!	!	!	!	!	!	!	!	!	!	!LO:DY:t=for
2.c\ 2.G 2.C\	De	2.cc/ 2.e/	.	f	2.G 2.C\	De-	.	2.c\	De-	.	2.e/	De-	.	2.cc\	De-	f
!LO:LB:g=original	!	!LO:LB:g=original	!	!	!	!	!	!	!	!	!LO:LB:g=original	!	!	!	!	!
=101	=101	=101	=101	=101	=101	=101	=101	=101	=101	=101	=101	=101	=101	=101	=101	=101
!	!	!	!	!	!	!	!	!LO:TX:t=cres-cen-do:problem:dynamics with extention lines	!	!LO:HP:a:t=cres-cen-do:ext=ud	!	!	!	!	!	!
4c\ 4B-\	scen-	4cc\ 4e\	.	.	4B-\	-scen-	.	4c\	-scen-	<	4e/	-scen-	.	4cc\	-scen-	.
4c\ 4B-\	-dit	4cc\ 4e\	.	.	4B-\	-dit	.	4c\	-dit	.	4e/	-dit	.	4cc\	-dit	.
4c\ 4B-\	de	4cc\ 4e\	.	.	4B-\	de	.	4c\	de	.	4e/	de	.	4cc\	de	.
!	!	!	!	!	!LO:LB:g=original	!	!	!LO:LB:g=original	!	!	!	!	!	!	!	!
=102	=102	=102	=102	=102	=102	=102	=102	=102	=102	=102	=102	=102	=102	=102	=102	=102
2.c\ 2.A\	ce-	2.cc\ 2.f\	.	>	2.A\	ce-	.	2.c\	ce-	.	2.f/	ce-	.	2.cc\	ce-	.
!	!	!	!	!	!	!	!	!	!	!	!	!	!	!LO:LB:g=original	!	!
=103	=103	=103	=103	=103	=103	=103	=103	=103	=103	=103	=103	=103	=103	=103	=103	=103
*	*	*	*	*	*	*	*	*	*	*^	*	*	*	*	*	*
!	!	!	!	!	!	!	!	!	!	!	!	!	!	!	!LO:TX:t=cres-cn-do:problem:dynamics with extention lines	!	!LO:HP:a:t=cres-cn-do:ext=ud
2.c\ 2.B- 2.G\	-lis	2.cc\ 2.e\	.	.	2.B- 2.G\	-lis	.	2.c\	-lis	.	.	2.e/	-lis	.	2.cc\	-lis	<
.	.	.	.	]	.	.	f	.	.	.	f	.	.	f	.	.	.
*	*	*	*	*	*	*	*	*	*	*v	*v	*	*	*	*	*	*
=104	=104	=104	=104	=104	=104	=104	=104	=104	=104	=104	=104	=104	=104	=104	=104	=104
!	!	!	!	!LO:DY:rj	!LO:TX:t=cres-cen-do:problem:dynamics with extention lines	!	!LO:HP:a:t=cres-cen-do:ext=ud	!	!	!	!	!	!	!	!	!
4c\ 4A 4F\	se-	4cc\ 4f\	.	p	4A 4F\	se-	<	4c\	se-	.	4f/	se-	.	4cc\	se-	.
!	!	!LO:TX:b:i:t=dol	!	!	!	!	!	!	!	!	!	!	!	!	!	!
4A\ 4F\	-det	4ff\ 4f\	.	.	4F\	-det	.	4A\	-det	[	4f/	-det	.	4ff\	-det	.
!	!	!	!	!	!	!	!	!	!	!	!LO:TX:t=cres-cen-do:problem:dynamics with extention lines	!	!LO:HP:a:t=cres-cen-do:ext=ud	!	!	!
4Bn\ 4D\	ad	4ff\ 4f\	.	.	4D\	ad	.	4Bn\	ad	.	4g/	ad	<	4ff\	ad	.
=105	=105	=105	=105	=105	=105	=105	=105	=105	=105	=105	=105	=105	=105	=105	=105	=105
4.Bn\ 4.C\	dex-	(4.ff^\ 4.g\	.	sfz	4.C\	de-	.	4.Bn\	de-	.	4.g/	de-	.	4.ff^<\	dex-	[
!	!	!	!	!	!	!	!	!	!	!LO:DY:a	!	!	!	!	!	!
.	.	.	.	.	.	.	.	.	.	f	.	.	.	.	.	.
8c\ 8C\	-te-	8ee\) 8g\	.	.	8C\	-xte-	.	8c\	-xte-	.	8g/	-xte-	.	8ee\	-te-	.
4c\ 4C\	-ram	4ee\ 4g\	.	.	4C\	-ram	[[	4c\	-ram	.	4g/	-ram	.	4ee\	-ram	.
=106	=106	=106	=106	=106	=106	=106	=106	=106	=106	=106	=106	=106	=106	=106	=106	=106
4B-\ 4BB-\	Pa-	4dd\ 4f\	.	p	4BB-/	Pa-	.	4B-X\	Pa-	.	4f/	Pa-	.	4dd\	Pa-	.
4B-\ 4D\	-tris	4dd\ 4f\	.	.	4D\	-tris	.	4B-\	-tris	.	4f/	-tris	.	4dd\	-tris	.
4B-\ 4En\	Et	4dd\ 4f\	.	.	4En\	Et	.	4B-\	Et	.	4f/	Et	[[	4dd\	Et	.
!	!	!	!	!	!	!	!	!	!	!	!LO:LB:g=original	!	!	!	!	!
=107	=107	=107	=107	=107	=107	=107	=107	=107	=107	=107	=107	=107	=107	=107	=107	=107
4.B-\ 4.F\	in-	4.dd^\ 4.f\	.	sfz	4.F\	in-	.	4.B-\	in-	.	4.f/	in-	.	4.dd^\	in-	.
8A\ 8F\	-te-	8cc\ 8f\	.	.	8F\	-te-	.	8A\	-te-	.	8f/	-te-	.	8cc\	-te-	.
4A\ 4F\	-rum	4cc\ 4f\	.	.	4F\	-rum	.	4A\	-rum	.	4f/	-rum	.	4cc\	-rum	.
!	!	!	!	!	!LO:LB:g=original	!	!	!LO:LB:g=original	!	!	!	!	!	!	!	!
=108	=108	=108	=108	=108	=108	=108	=108	=108	=108	=108	=108	=108	=108	=108	=108	=108
4d\ 4G\	ven-	4b-/ 4d/	.	p	4G\	ven-	.	4d\	ven-	.	4d/	ven-	.	4b-\	ven-	.
4d\ 4G\	-tu-	4b-/ 4g/	.	.	4G\	-tu-	.	4d\	-tu-	.	4g/	-tu-	.	4b-\	-tu-	.
4d\ 4G\	-rus	4b-/ 4f/	.	.	4G\	-rus	.	4d\	-rus	.	4f/	-rus	.	4b-\	-rus	.
!LO:LB:g=original	!	!LO:LB:g=original	!	!	!	!	!	!	!	!	!	!	!	!LO:LB:g=original	!	!
=109	=109	=109	=109	=109	=109	=109	=109	=109	=109	=109	=109	=109	=109	=109	=109	=109
2c\ 2C\	est	2b-/ 2e/	.	.	2C/	est	.	2c\	est	.	2e/	est	.	2b-\	est	.
4c\ 4F\	cum	4a/ 4f/	.	.	4F\	cum	.	4c\	cum	.	4f/	cum	.	4a\	cum	.
=110	=110	=110	=110	=110	=110	=110	=110	=110	=110	=110	=110	=110	=110	=110	=110	=110
*^	*	*^	*	*	*	*	*	*	*	*	*	*	*	*	*	*
*	*	*	*^	*	*	*	*	*	*	*	*	*	*	*	*	*	*	*
!	!	!	!	!	!LO:TX:b:t=P:problem:nuta w źródle dopisana na fioletowo	!	!	!	!	!	!	!	!	!	!	!	!	!	!
2B-\	2.BB-\	glo-	4g/	2g	2d\	.	.	2.BB-/	glo-	.	2B-\	glo-	.	2g/	glo-	.	(4g/	glo-	.
.	.	.	4dd/	.	.	.	.	.	.	.	.	.	.	.	.	.	4dd\)	.	.
!LO:TX:b:t=P:problem:skreślona cauda w dół	!	!	!	!	!	!	!	!	!	!	!	!	!	!	!	!	!	!	!
4G/	.	.	8cc/L	4d\	4ryy	.	.	.	.	.	4G\	.	.	4d/	.	.	8cc\L	.	.
.	.	.	8b-/J	.	.	.	.	.	.	.	.	.	.	.	.	.	8b-\J	.	.
*	*	*	*	*v	*v	*	*	*	*	*	*	*	*	*	*	*	*	*	*
=111	=111	=111	=111	=111	=111	=111	=111	=111	=111	=111	=111	=111	=111	=111	=111	=111	=111	=111
2B-/	2C\	.	8a/L	2e\	.	.	2C/	.	.	2B-\	.	.	2e/	.	.	(8a/L	.	.
.	.	.	8g/	.	.	.	.	.	.	.	.	.	.	.	.	8g/	.	.
.	.	.	8f#X/	.	.	.	.	.	.	.	.	.	.	.	.	8f#X/	.	.
.	.	.	8g/J	.	.	.	.	.	.	.	.	.	.	.	.	8g/J	.	.
8G/L	4C\	-ri-	8cc/L	4e\	.	.	4C/	-ri-	.	(8G\L	-ri-	.	4e/	-ri-	.	8cc/L)	-ri-	.
8c/J	.	.	8b-/J	.	.	.	.	.	.	8c\J)	.	.	.	.	.	8b-/J	.	.
*	*	*	*v	*v	*	*	*	*	*	*	*	*	*	*	*	*	*	*
*v	*v	*	*	*	*	*	*	*	*	*	*	*	*	*	*	*	*
=112	=112	=112	=112	=112	=112	=112	=112	=112	=112	=112	=112	=112	=112	=112	=112	=112
4c\ 4F\	-a	4a/ 4f/	.	.	4F\	-a	.	4c\	-a	.	4f/	-a	.	4a/	-a	.
.	.	.	.	.	.	.	.	.	.	.	.	.	f	.	.	.
4A\ 4F\	ju-	4ff\ 4f\	.	.	4F\	ju-	.	4A\	ju-	.	4f/	ju-	.	4ff\	ju-	.
4Bn\ 4D\	-di-	4ff\ 4g\	.	.	4D\	-di-	.	4Bn\	-di-	.	4g/	-di-	.	4ff\	-di-	.
!	!	!	!	!	!	!	!	!	!	!	!LO:LB:g=original	!	!	!	!	!
=113	=113	=113	=113	=113	=113	=113	=113	=113	=113	=113	=113	=113	=113	=113	=113	=113
2c\ 2C\	-ca-	2ff\ 2g\	.	>	2C/	-ca-	.	2c\	-ca-	.	2g/	-ca-	.	2ff^\	-ca-	.
4c\ 4C\	-re	4ee\ 4g\	.	]	4C/	-re	.	4c\	-re	.	4g/	-re	.	4ee\	-re	.
!	!	!	!	!	!LO:LB:g=original	!	!	!LO:LB:g=original	!	!	!	!	!	!	!	!
=114	=114	=114	=114	=114	=114	=114	=114	=114	=114	=114	=114	=114	=114	=114	=114	=114
*^	*	*	*	*	*	*	*	*	*	*	*	*	*	*	*	*
!	!	!	!	!	!LO:DY:rj	!	!	!	!	!	!	!	!	!	!	!	!
2B-/	4BB-\	ju-	2dd\ 2f\	.	p	4BB-/	ju-	.	2B-\	ju-	.	2f/	ju-	.	2dd\	ju-	.
.	4D\	.	.	.	.	4D\	.	.	.	.	.	.	.	.	.	.	.
4B-/	4En\	-di-	4dd\ 4f\	.	.	4En\	-di	.	4B-\	-di-	.	4f/	-di-	.	4dd\	-di-	.
*v	*v	*	*	*	*	*	*	*	*	*	*	*	*	*	*	*	*
!	!	!	!	!	!	!	!	!	!	!	!	!	!	!LO:LB:g=original	!	!
=115	=115	=115	=115	=115	=115	=115	=115	=115	=115	=115	=115	=115	=115	=115	=115	=115
2B-\ 2F\	-ca-	2dd^\ 2f\	.	.	2F\	ca-	.	2B-\	-ca-	.	2f/	-ca-	.	2dd^\	-ca-	.
4A\ 4F\	-re	4cc\ 4f\	.	.	4F\	-re	.	4A\	-re	.	4f/	-re	.	4cc\	-re	.
!LO:LB:g=original	!	!LO:LB:g=original	!	!	!	!	!	!	!	!	!	!	!	!	!	!
=116	=116	=116	=116	=116	=116	=116	=116	=116	=116	=116	=116	=116	=116	=116	=116	=116
!	!	!	!	!	!	!	!	!	!	!LO:DY:rj	!	!	!	!	!	!
2.A-X\ 2.D\	vi-	2.bn/ 2.f/	.	p	2.D\	vi-	.	2.A-X\	vi-	p	2.f/	vi-	.	2.bn\	vi-	p
=117	=117	=117	=117	=117	=117	=117	=117	=117	=117	=117	=117	=117	=117	=117	=117	=117
2A-X\ 2C\	-vos	2cc/ 2f/	.	.	2C\	-vos	p	2A-X\	-vos	.	2f/	-vos	.	2cc\	-vos	.
4A-\ 4C\	et	4cc/ 4f/	.	.	4C\	et	.	4A-\	et	.	4f/	et	.	4cc\	et	.
=118	=118	=118	=118	=118	=118	=118	=118	=118	=118	=118	=118	=118	=118	=118	=118	=118
!	!	!	!	!	!LO:TX:b:i:t=rall	!	!	!	!	!LO:DY:rj	!	!	!	!	!	!
2.A-X\ 2.BBn\	mor-	2.dd/ 2.f/	.	.	2.BBn/	mor-	.	2.A-X\	mor-	p	2.f/	mor-	.	2.dd\	mor-	.
=119	=119	=119	=119	=119	=119	=119	=119	=119	=119	=119	=119	=119	=119	=119	=119	=119
!	!	!	!	!	!	!	!	!	!	!	!	!	!LO:DY:rj	!	!	!
2G\ 2BB-\	.	2f/ 2d/	.	.	2BBn/	.	.	2G/	.	.	2d/	.	p	2f/	.	.
4G\ 4BB-\	-tu-	4f/ 4d/	.	.	4BB/	-tu-	.	4G/	-tu-	.	4d/	-tu-	.	4f/	-tu-	.
=120	=120	=120	=120	=120	=120	=120	=120	=120	=120	=120	=120	=120	=120	=120	=120	=120
!	!	!	!	!	!	!	!LO:DY:rj	!	!	!	!	!	!	!	!	!
2G\ 2C\	-os	2e/ 2B-/	.	.	2C/	-os	pp	2G/	-os	.	2c/	-os	.	2e/	-os	.
4r	.	4r	.	.	4r	.	.	4r	.	.	4r	.	.	4r	.	.
.	.	.	.	pp	.	.	.	.	.	.	.	.	.	.	.	pp
!	!	!	!	!	!LO:PB:g=original	!	!	!LO:PB:g=original	!	!	!LO:LB:g=original	!	!	!	!	!
=121	=121	=121	=121	=121	=121	=121	=121	=121	=121	=121	=121	=121	=121	=121	=121	=121
!	!	!	!	!	!	!	!	!	!	!	!	!	!LO:DY:rj	!	!	!
2.G\ 2.E 2.C\	et	2.c/	.	.	2.E 2.C/	et	.	2.G/	et	.	2.c/	et	p	2.c/	et	.
=122	=122	=122	=122	=122	=122	=122	=122	=122	=122	=122	=122	=122	=122	=122	=122	=122
!	!	!	!	!	!	!	!LO:DY:a	!	!	!	!	!	!	!	!	!
2.A-\ 2.F 2.C\	mor-	2.Bn/	.	.	2.F 2.C/	mor-	p	[>2.A-X/	mor-	.	2.Bn/	mor-	.	2.Bn/	mor-	.
!	!	!	!	!	!	!	!	!	!	!	!	!	!	!LO:LB:g=original	!	!
=123	=123	=123	=123	=123	=123	=123	=123	=123	=123	=123	=123	=123	=123	=123	=123	=123
2A\ 2F 2C\	.	2B-/	.	.	2F 2C/	.	.	2A-X/]	.	.	2Bn/	.	.	2Bn/	.	.
!	!	!LO:TX:b:i:t=rall&colon;	!	!	!	!	!	!	!	!	!	!	!	!	!	!
4A\ 4F 4C\	-tu-	4B-/	.	.	4F 4C/	-tu-	.	4A-/	-tu-	.	4B/	-tu-	.	4B/	-tu-	.
=124	=124	=124	=124	=124	=124	=124	=124	=124	=124	=124	=124	=124	=124	=124	=124	=124
2.G\ 2.E 2.C\	-os	2.c/	.	.	2.E 2.C/	-os	.	[>2.G/	-os	.	[2.c/	-os	.	[2.c/	-os	.
=125	=125	=125	=125	=125	=125	=125	=125	=125	=125	=125	=125	=125	=125	=125	=125	=125
2G;\ 2E 2C\	.	2c;/	.	.	2E 2C;/	.	.	2G;/]	.	.	2c;/]	.	.	2c;/]	.	.
!	!	!	!	!	!	!	!	!	!	!	!	!	!	!LO:TX:a:t=P:problem:pojedyncza kreska taktowa	!	!
4r	.	4r	.	.	4r	.	.	4r	.	.	4r	.	.	4r	.	.
!	!	!	!	!	!	!	!	!	!	!	!LO:TX:a:t=P:problem:pojedyncza kreska taktowa	!	!	!	!	!
.	.	.	.	.	.	.	.	.	.	p	.	.	p	.	.	.
!LO:LB:g=original	!	!LO:LB:g=original	!	!	!	!	!	!	!	!	!	!	!	!	!	!
=126||	=126||	=126||	=126||	=126||	=126||	=126||	=126||	=126||	=126||	=126||	=126||	=126||	=126||	=126||	=126||	=126||
*^	*	*	*	*	*	*	*	*	*	*	*	*	*	*	*	*
!	!	!	!	!	!LO:DY:rj	!	!	!LO:DY:a	!	!	!	!	!	!	!LO:TX:b:i:t=dol.	!	!
4c/	2F\	cu-	4a/ 4f/	.	p	2F\	cu-	p	((4c\	cu-	.	(4f/	cu-	.	(4a/	cu-	.
!	!	!	!LO:TX:b:i:t=dol	!	!	!LO:TX:a:i:t=dol&colon;	!	!	!	!	!	!LO:TX:a:i:t=legato	!	!	!	!	!
4e/	.	.	4cc/ 4g/	.	.	.	.	.	4e\)	-jus	.	4g/)	.	.	4cc\	.	.
4d/	4F\	-jus	4b-/ 4f/	.	.	4F\	-jus	.	4d\)	.	.	4f/	-jus	.	4b-\)	-jus	.
=127	=127	=127	=127	=127	=127	=127	=127	=127	=127	=127	=127	=127	=127	=127	=127	=127	=127
4c/	4F\	re-	4a/ 4f/	.	.	4F\	re-	.	(4c\	re-	.	4f/	re-	.	4a/	re-	.
4B-/	4F\	-gni	4g/ 4c/	.	.	4F\	-gni	.	4B-\	-gni	.	4c/	-gni	.	4g/	-gni	.
4A/	4F\	non	4f/ 4c/	.	.	4F\	non	.	4A\)	non	.	4c/	no	.	4f/	non	.
!	!	!	!	!	!	!LO:LB:g=original	!	!	!LO:LB:g=original	!	!	!LO:LB:g=original	!	!	!	!	!
=128	=128	=128	=128	=128	=128	=128	=128	=128	=128	=128	=128	=128	=128	=128	=128	=128	=128
*	*	*	*^	*	*	*	*	*	*	*	*	*	*	*	*	*	*
*	*	*	*^	*	*	*	*	*	*	*	*	*	*	*	*	*	*	*
2G/	2C\	e-	2f/	4f/	2B-\	.	.	2C/	e-	.	2G/	e-	.	2B-X/	e-	.	(4f/	e-	.
.	.	.	.	4e/	.	.	.	.	.	.	.	.	.	.	.	.	4e/)	.	.
4G/	4C\	-rit	4ryy	4f/	4B-\	.	.	4C/	-rit	.	4F/	-rit	.	4B-/	-rit	.	4f/	-rit	.
*	*	*	*v	*v	*	*	*	*	*	*	*	*	*	*	*	*	*	*	*
=129	=129	=129	=129	=129	=129	=129	=129	=129	=129	=129	=129	=129	=129	=129	=129	=129	=129	=129
4E/	4C\	fi-	4f#X/	4B-\	.	.	4C/	fi-	.	4E/	fi-	.	4B-/	fi-	.	4f#X/	fi-	.
4E/	4C\	-nis	4g/	4B-\	.	.	4C/	-nis	.	4E/	-nis	.	4B-/	-nis	.	4g/	-nis	.
4r	4r	.	4r	4r	.	.	4r	.	.	4r	.	.	4r	.	.	4r	.	.
*	*	*	*v	*v	*	*	*	*	*	*	*	*	*	*	*	*	*	*
!	!	!	!	!	!	!	!	!	!	!	!	!	!	!	!LO:LB:g=original	!	!
=130	=130	=130	=130	=130	=130	=130	=130	=130	=130	=130	=130	=130	=130	=130	=130	=130	=130
4d/	2C\	et	4b-/ 4f/	.	.	2C/	et	.	(4d\	et	.	(4f/	et	.	(4b-\	et	.
4f/	.	.	4dd/ 4a/	.	.	.	.	.	4f\	.	.	4a/)	.	.	4dd\)	.	.
4e/	4C\	in	4cc/ 4g/	.	.	4C/	in	.	4e\)	in	.	4g/	in	.	4cc\	in	.
=131	=131	=131	=131	=131	=131	=131	=131	=131	=131	=131	=131	=131	=131	=131	=131	=131	=131
4d/	4C\	spi-	4b-/ 4f/	.	.	4C/	spi-	.	4d\	spi-	.	4f/	spi-	.	4b-\	spi-	.
4c/	4C\	-ti-	4a/ 4f/	.	.	4C/	-ri-	.	4c\	-ri-	.	4f/	-ri-	.	4a\	-ri-	.
!	!	!	!	!	!	!	!	!	!LO:TX:a:i:t=dol	!	!	!	!	!	!	!	!
4B-/	4C\	-tum	4g/ 4e/	.	.	4C/	-tum	.	4B-\	-tum	.	4e/	-tum	.	4g\	-tum	.
=132	=132	=132	=132	=132	=132	=132	=132	=132	=132	=132	=132	=132	=132	=132	=132	=132	=132
4B-/	2F\	san-	4g/ 4e/	.	.	2F\	san-	.	(4B-\	san-	.	4e/	San-	.	4g/	san-	.
!	!	!	!	!	!	!	!	!	!LO:TX:a:i:t=legato	!	!	!	!	!	!	!	!
4A/	.	.	4f/ 4c/	.	.	.	.	.	4A\)	.	.	4c/	.	.	4f/	.	.
4c/	4F\	-ctum	4g/ 4e/	.	.	4F\	-ctum	.	4c\	-ctum	.	4e/	-ctum	.	4g/	-ctum	.
*v	*v	*	*	*	*	*	*	*	*	*	*	*	*	*	*	*	*
!LO:PB:g=original	!	!LO:PB:g=original	!	!	!LO:LB:g=original	!	!	!	!	!	!	!	!	!	!	!
=133	=133	=133	=133	=133	=133	=133	=133	=133	=133	=133	=133	=133	=133	=133	=133	=133
8.c\ 8.F\	Do-	8.g#X/ 8.e/	.	.	8.F\	Do-	.	8.c\	Do-	.	8.e/	Do-	.	8.g#X/	Do-	.
16c\ 16F\	-mi-	16a/ 16f/	.	.	16F\	-mi-	.	16c\	-mi-	.	16f/	-mi-	.	16a/	-mi-	.
!	!	!	!	!	!	!	!	!	!	!	!	!	!	!LO:TX:a:i:t=legato	!	!
4c\ 4F\	-num	4a/ 4f/	.	.	4F\	-num	.	4c\	-num	.	4f/	-num	.	4a/	-num	.
4r	.	4r	.	.	4r	.	.	4r	.	.	4r	.	.	4r	.	.
!	!	!	!	!	!	!	!	!LO:LB:g=original	!	!	!LO:LB:g=original	!	!	!	!	!
=134	=134	=134	=134	=134	=134	=134	=134	=134	=134	=134	=134	=134	=134	=134	=134	=134
*^	*	*	*	*	*	*	*	*	*	*	*	*	*	*	*	*
4d/	8BB-\L	et	4b-/ 4f/	.	.	8BB-/L	et	.	4d\	et	.	4f/	et	.	4b-\	et	.
.	8AA\J	.	.	.	.	8AA/J	.	.	.	.	.	.	.	.	.	.	.
4d/	8BB-\L	vi-	4b-/ 4f/	.	.	8BB-/L	vi-	.	4d\	vi-	.	4f/	vi-	.	4b-\	vi-	.
.	8C\J	.	.	.	.	8C/J	.	.	.	.	.	.	.	.	.	.	.
4d/	8D\L	-fi-	4b-/ 4f/	.	.	8D\L	-fi-	.	4d\	-fi-	.	4f/	-fi-	.	4b-\	-fi-	.
.	8E\J	.	.	.	.	8E\J	.	.	.	.	.	.	.	.	.	.	.
=135	=135	=135	=135	=135	=135	=135	=135	=135	=135	=135	=135	=135	=135	=135	=135	=135	=135
2c/	8F\L	-can-	2a/ 2f/	.	.	8F\L	-can-	.	2c\	-can-	.	2f/	-can-	.	2a/	-can-	.
.	8E\J	.	.	.	.	8E\J	.	.	.	.	.	.	.	.	.	.	.
.	8F\L	.	.	.	.	8F\L	.	.	.	.	.	.	.	.	.	.	.
.	8G\J	.	.	.	.	8G\J	.	.	.	.	.	.	.	.	.	.	.
4c/	8A\L	-tem	4a/ 4f/	.	.	8A\L	-tem	.	4c\	-tem	.	4f/	-tem	.	4a/	-tem	.
.	8F\J	.	.	.	.	8F\J	.	.	.	.	.	.	.	.	.	.	.
!	!	!	!	!	!	!	!	!	!	!	!	!	!	!	!LO:LB:g=original	!	!
=136	=136	=136	=136	=136	=136	=136	=136	=136	=136	=136	=136	=136	=136	=136	=136	=136	=136
*	*	*	*^	*	*	*	*	*	*	*	*	*	*	*	*	*	*
8B-/L	2BB-\	qui	2b-/	4d\	.	.	2BB-/	qui	.	(8B-\L	qui	.	4d/	qui	.	2b-\	qui	.
8A/J	.	.	.	.	.	.	.	.	.	8A\J	.	.	.	.	.	.	.	.
8B-/L	.	.	.	8d\L	.	.	.	.	.	8B-\L	.	.	(8d/L	.	.	.	.	.
8c/J	.	.	.	8e\J	.	.	.	.	.	8c\J)	.	.	8e/J	.	.	.	.	.
8d/L	4BB-\	ex	4ryy	8f\L	.	.	4BB-/	ex	.	8d\L	ex	.	8f/L)	ex	.	4b-\	ex	.
8e/J	.	.	.	8g\J	.	.	.	.	.	8e\J	.	.	8g/J	.	.	.	.	.
*	*	*	*v	*v	*	*	*	*	*	*	*	*	*	*	*	*	*	*
*v	*v	*	*	*	*	*	*	*	*	*	*	*	*	*	*	*	*
=137	=137	=137	=137	=137	=137	=137	=137	=137	=137	=137	=137	=137	=137	=137	=137	=137
!LO:N:vis=8	!	!	!	!	!	!	!	!	!	!	!	!	!	!	!	!
4f\ 4F\	Pa-	4a/ 4f/	.	.	4F\	Pa-	.	4f\	Pa-	.	4f/	Pa-	.	4a/	Pa-	.
4c\ 4F\	-tre	4a/ 4f/	.	.	4F\	-tre	.	4c\	-tre	.	4f/	-tre	.	4a/	-tre	.
8.c\ 8.F\	Fi-	8.cc\ 8.a\	.	.	8.F\	Fi-	.	8.c\	Fi-	.	8.a/	Fi-	.	8.cc\	Fi-	.
16c\ 16F\	-li-	16cc\ 16a\	.	.	16F\	-li-	.	16c\	-li-	.	16a/	-li-	.	16cc\	-li-	.
!	!	!	!	!	!LO:LB:g=original	!	!	!	!	!	!	!	!	!	!	!
=138	=138	=138	=138	=138	=138	=138	=138	=138	=138	=138	=138	=138	=138	=138	=138	=138
*	*	*^	*	*	*	*	*	*	*	*	*	*	*	*	*	*
2c\ 2E\	-o	4.cc/	2g\	.	.	2E\	-o	.	2c\	-o	.	2g/	-o	.	(4.cc\	-o	.
.	.	8cc#X/	.	.	.	.	.	.	.	.	.	.	.	.	8cc#X\)	.	.
8c\ 8E\	que	8dd/	8g\	.	.	8E\	que	.	8c\	que	.	8g/	que	.	8dd\	que	.
8c\ 8E\	pro-	8b-/	8g\	.	.	8E\	pro-	.	8c\	pro-	.	8g/	pro-	.	8b-\	pro-	.
*	*	*v	*v	*	*	*	*	*	*	*	*	*	*	*	*	*	*
!LO:LB:g=original	!	!LO:LB:g=original	!	!	!	!	!	!LO:LB:g=original	!	!	!LO:PB:g=original	!	!	!	!	!
=139	=139	=139	=139	=139	=139	=139	=139	=139	=139	=139	=139	=139	=139	=139	=139	=139
*^	*	*	*	*	*	*	*	*	*	*	*	*	*	*	*	*
4c/	2F\	-ce-	4b-/ 4g/	.	.	2F\	-ce-	.	4c\	-ce-	.	4g/	-ce-	.	4b-\	-ce-	.
8c/	.	[[dit]]	8a/ 8f/	.	.	.	.	.	8c\	-dit	.	8f/	-dit	.	8a\	-dit	.
8rc	.	.	8r	.	.	.	.	.	8r	.	.	8r	.	.	4r	.	.
4r	8E\L	-dit	4r	.	.	8E\L	-dit	.	4r	.	.	4r	.	.	.	.	.
.	8D\J	.	.	.	.	8D\J	.	.	.	.	.	.	.	.	8r	.	.
*v	*v	*	*	*	*	*	*	*	*	*	*	*	*	*	*	*	*
=140	=140	=140	=140	=140	=140	=140	=140	=140	=140	=140	=140	=140	=140	=140	=140	=140
*	*	*^	*	*	*	*	*	*	*	*	*	*	*	*	*	*
2A\ 2C#X\	Qui	4.a/	2e\	.	.	2C#X/	Qui	.	2A\	Qui	.	2e/	Qui	.	(4.a/	Qui	.
.	.	8b-/	.	.	.	.	.	.	.	.	.	.	.	.	8b-/)	.	.
4A\ 4C#\	cum	8a/L	4e\	.	.	4C#/	cum	.	4A\	cum	.	4e/	cum	.	8a/L	cum	.
.	.	8g/J	.	.	.	.	.	.	.	.	.	.	.	.	8g/J	.	.
*	*	*v	*v	*	*	*	*	*	*	*	*	*	*	*	*	*	*
!	!	!	!	!	!	!	!	!	!	!	!	!	!	!LO:LB:g=original	!	!
=141	=141	=141	=141	=141	=141	=141	=141	=141	=141	=141	=141	=141	=141	=141	=141	=141
4A\ 4D\	Pa-	4g/ 4e/	.	.	4D\	Pa-	.	4A\	Pa-	.	4e/	Pa-	.	4g/	Pa-	.
4A\ 4D\	-tre	4f/ 4d/	.	.	4D\	-tre	.	4A\	-tre	.	4d/	-tre	.	4f/	-tre	.
4A\ 4D\	et	4dd\ 4f\	.	.	4D\	et	.	4A\	et	.	4f/	et	.	4dd\	et	.
.	.	.	.	.	.	.	.	.	.	f	.	.	.	.	.	.
=142	=142	=142	=142	=142	=142	=142	=142	=142	=142	=142	=142	=142	=142	=142	=142	=142
!	!	!	!	!LO:DY:rj:t=for	!	!	!	!	!	!	!	!	!LO:DY:a:t=for	!	!	!LO:DY:rj
8.B-\ 8.BB-\	Fi-	8.dd\ 8.f\	.	f	8.BB-/	Fi-	.	8.B-\	Fi-	.	8.f/	Fi-	f	8.dd\	Fi-	ff
16B-\ 16BB-\	-li-	16dd\ 16f\	.	.	16BB-/	-li-	.	16B-\	-li-	.	16f/	-li-	.	16dd\	-li-	.
4B-\ 4BB-\	-o	4dd\ 4f\	.	.	4BB-/	-o	.	4B-\	-o	.	4f/	-o	.	4dd\	-o	.
8.d\ 8.B-\	si-	8cc#X\ 8f\	.	.	8B-\	si-	.	8.d\	si-	.	8f/	si-	.	8cc#X\	si-	.
.	.	8dd\ 8f\	.	.	8B-\	-mul	.	.	.	.	8f/	-mul	.	8dd\	-mul	.
16d\ 16B-\	-mul	.	.	.	.	.	.	16d\	-mul	.	.	.	.	.	.	.
!	!	!	!	!	!LO:LB:g=original	!	!	!	!	!	!	!	!	!	!	!
=143	=143	=143	=143	=143	=143	=143	=143	=143	=143	=143	=143	=143	=143	=143	=143	=143
*	*	*^	*	*	*	*	*	*	*	*	*	*	*	*	*	*
!	!	!	!	!	!LO:DY:rj	!	!	!LO:DY:rj	!	!	!	!	!	!	!	!	!
2d\ 2B-\	a-	8een/L	2f\	.	p	2B-\	a-	ff	2d\	a-	.	2f/	a-	.	(8ee\L	a-	.
.	.	8dd/	.	.	.	.	.	.	.	.	.	.	.	.	8dd\	.	.
.	.	8cc/	.	.	.	.	.	.	.	.	.	.	.	.	8cc\	.	.
.	.	8b-/J	.	.	.	.	.	.	.	.	.	.	.	.	8b-\J	.	.
4B-\ 4BB-\	-do-	8a/L	4d\	.	.	4BB-/	-do-	.	4B-\	-do-	.	4d/	-do-	.	8a/L)	-do-	.
.	.	8g/J	.	.	.	.	.	.	.	.	.	.	.	.	8g/J	.	.
!	!	!	!	!	!	!	!	!	!LO:LB:g=original	!	!	!LO:LB:g=original	!	!	!	!	!
=144	=144	=144	=144	=144	=144	=144	=144	=144	=144	=144	=144	=144	=144	=144	=144	=144	=144
2A\ 2C\	-ra-	2f/ 2c/	2ryy	.	.	2.C/	-ra-	.	2A\	-ra-	.	2c/	-ra-	.	2f/	-ra-	.
4B-\ 4C\	.	8a/L	4e\	.	.	.	.	.	4B-\	.	.	4e/	.	.	(8a/L	.	.
.	.	8g/J	.	.	.	.	.	.	.	.	.	.	.	.	8g/J)	.	.
*	*	*v	*v	*	*	*	*	*	*	*	*	*	*	*	*	*	*
!LO:LB:g=original	!	!LO:LB:g=original	!	!	!	!	!	!	!	!	!	!	!	!	!	!
=145	=145	=145	=145	=145	=145	=145	=145	=145	=145	=145	=145	=145	=145	=145	=145	=145
4A\ 4F\	-tur	4f/	.	.	4F\	-tur	.	4A\	-tur	.	4f/	-tur	.	4f/	-tur	.
4r	.	4r	.	.	4r	.	p	4r	.	.	4r	.	.	4r	.	.
4F\	et	4f/	.	.	4F\	et	.	4F/	et	.	4f/	et	.	4f/	et	.
.	.	.	.	p	.	.	.	.	.	.	.	.	.	.	.	.
!	!	!	!	!	!	!	!	!	!	!	!	!	!	!LO:PB:g=original	!	!
=146	=146	=146	=146	=146	=146	=146	=146	=146	=146	=146	=146	=146	=146	=146	=146	=146
!	!	!	!	!	!	!	!	!	!	!	!	!	!LO:DY:rj	!LO:TX:a:t=P:problem:dwa skreślone takty	!	!LO:DY:a
4.d\ 4.F\	con	4.b-/ 4.f/	.	.	4.F\	con	.	4.d\	con	.	4.f/	con	p	4.b-\	con-	p
8d\ 8F\	glo-	8b-/ 8f/	.	.	8F\	glo-	.	8d\	glo-	.	8f/	glo-	.	8b-\	-glo-	.
8d\ 8F\	-ri-	8cc/ 8f/	.	.	8F\	-ri-	.	8d\	-ri-	.	8f/	-ri-	.	8cc\	-ri-	.
8d\ 8F\	-fi-	8b-/ 8f/	.	.	8F\	-fi-	.	8d\	-fi-	.	8f/	-fi-	.	8b-\	-fi-	.
=147	=147	=147	=147	=147	=147	=147	=147	=147	=147	=147	=147	=147	=147	=147	=147	=147
*	*	*^	*	*	*	*	*	*	*	*	*	*	*	*	*	*
4c\ 4F\	-ca-	4a/ 4f/	2ryy	.	.	4F\	-ca-	.	4c\	-ca-	.	4f/	-ca-	.	4a\	-ca-	.
4c\ 4F\	-tur	4a/ 4f/	.	.	.	4F\	-tur	.	4c\	-tur	.	4f/	-tur	.	4a\	-tur	.
4A\ 4F\	qui	4f/	4f\	.	.	4F\	qui	.	4A\	qui	.	4f/	qui	.	4f/	qui	.
!	!	!	!	!	!	!LO:LB:g=original	!	!	!	!	!	!	!	!	!	!	!
=148	=148	=148	=148	=148	=148	=148	=148	=148	=148	=148	=148	=148	=148	=148	=148	=148	=148
4B-\ 4F\	lo-	4dd\	4f\	.	.	4F\	lo-	.	4B-\	lo-	.	4f/	lo-	.	4dd\	lo-	.
4B-\ 4F\	-cu-	4dd\	4f\	.	.	4F\	-cu-	.	4B-\	-cu-	.	4f/	-cu-	.	4dd\	-cu-	.
4B-\ 4F\	-tus	8ee/L	4f\	.	.	4F\	-tus	.	4B-\	-tus	.	4f/	-tus	.	(8ee\L	-tus	.
.	.	8dd/J	.	.	.	.	.	.	.	.	.	.	.	.	8dd\J)	.	.
*	*	*v	*v	*	*	*	*	*	*	*	*	*	*	*	*	*	*
=149	=149	=149	=149	=149	=149	=149	=149	=149	=149	=149	=149	=149	=149	=149	=149	=149
*^	*	*	*	*	*	*	*	*	*	*	*	*	*	*	*	*
4A\	4F\	est	4cc/ 4f/	.	.	4F\	est	.	4A\	est	.	4f/	est	.	4cc\	est	.
!	!	!	!	!	!	!	!	!	!LO:TX:a:i:t=Solo:problem:dopisane ołówkiem	!	!	!	!	!	!	!	!
4r	4ryy	.	4r	.	f	4r	.	f	4r	.	f	4r	.	.	4r	.	.
!LO:N:vis=8	!	!	!	!	!	!	!	!	!	!	!	!	!	!	!	!	!
8.B-/	8.B-\	Per	4r	.	.	8.B-\	Per	.	8.B-\	Per-	.	4r	.	.	4r	.	.
16B-/	16B-\	pro-	.	.	.	16B-\	pro-	.	16B-\	-pro-	.	.	.	.	.	.	.
*v	*v	*	*	*	*	*	*	*	*	*	*	*	*	*	*	*	*
!	!	!	!	!	!	!	!	!LO:LB:g=original	!	!	!LO:LB:g=original	!	!	!LO:LB:g=original	!	!
=150	=150	=150	=150	=150	=150	=150	=150	=150	=150	=150	=150	=150	=150	=150	=150	=150
4B-/	-phe-	4r	.	.	4B-\	-phe-	.	4B-\	-phe-	.	4r	.	.	4r	.	.
4B-/ 4BB-/	-tas	4r	.	p	4BB-/	-tas	.	8B-\	-tas	.	4r	.	f	4r	.	.
.	.	.	.	.	.	.	.	8r	.	.	.	.	.	.	.	.
4r	.	8.dd\ 8.b-\	per	.	4r	.	.	4r	.	.	8.b-\	per	.	8.dd\	per	.
.	.	16dd\ 16b-\	Pro-	.	.	.	.	.	.	.	16b-\	pro-	.	16dd\	Pro-	.
!LO:LB:g=original	!	!LO:LB:g=original	!	!	!	!	!	!	!	!	!	!	!	!	!	!
=151	=151	=151	=151	=151	=151	=151	=151	=151	=151	=151	=151	=151	=151	=151	=151	=151
*^	*	*	*	*	*	*	*	*	*	*	*	*	*	*	*	*
4r	2ryy	.	4dd\ 4b-\	-phe-	.	4r	.	.	4r	.	f	(4b-\	-phe-	.	(4dd\	-phe-	.
4r	.	.	4cc#X\ 4a\	.	f	4r	.	f	4r	.	.	4a\)	.	.	4cc#X\)	.	.
!LO:N:vis=8	!	!	!	!	!	!	!	!	!	!	!	!	!	!	!	!	!
8.G/	8.G\	per	4dd\ 4b-\	-tas	.	8.G\	per	.	8.G/	Per	.	4b-\	-tas	.	4dd\	-tas	.
16G/	16G\	Pro-	.	.	.	16G\	Pro-	.	16G/	pro-	.	.	.	.	.	.	.
=152	=152	=152	=152	=152	=152	=152	=152	=152	=152	=152	=152	=152	=152	=152	=152	=152	=152
4G/	4ryy	-phe-	4r	.	.	4G\	-phe-	.	4G/	-phe-	.	4r	.	.	2r	.	.
4G/	4G\	-tas	4r	.	p	4GG/	-tas	.	4G/	-tas	.	4r	.	.	.	.	.
!	!	!	!LO:N:vis=8	!	!	!	!	!	!	!	!	!	!	!	!	!	!
8.d/	4r	per	8.b-/ 8.g/	.	.	4r	.	.	8.d\	Per	.	8.g/	per	.	8.b-/	per	.
16d/	.	Pro-	16b-/ 16g/	.	.	.	.	.	16d\	pro-	.	16g/	Pro-	.	16b-/	Pro-	.
!	!	!	!	!	!	!	!	!	!	!	!LO:DY:a	!	!	!	!	!	!
.	.	.	.	.	.	.	.	.	.	.	p	.	.	.	.	.	.
*v	*v	*	*	*	*	*	*	*	*	*	*	*	*	*	*	*	*
=153	=153	=153	=153	=153	=153	=153	=153	=153	=153	=153	=153	=153	=153	=153	=153	=153
*	*	*^	*	*	*	*	*	*	*	*	*	*	*	*	*	*
!	!	!	!	!	!	!LO:TX:a:t=P:problem:w źródle takt dopisany ołówkiem	!	!	!LO:TX:a:t=P:problem:dopisane ołówkiem dwie ćwierćnuty [8d\ 8c#\]	!	!	!	!	!	!	!	!
(4d/	-phe-	4b-/	2g\	.	.	2.r	.	.	2d\	-phe-	.	2g/	-phe-	.	(4b-/	-phe-	.
4c#X/	.	4a/	.	.	.	.	.	.	.	.	.	.	.	.	4a/)	.	.
4d/)	-tas	4b-/	4g\	.	.	.	.	.	4d\	-tas	.	4g/	-tas	.	4b-/	-tas	.
.	.	.	.	.	pp	.	.	.	.	.	.	.	.	.	.	.	.
!	!	!	!	!	!	!LO:LB:g=original	!	!	!	!	!	!	!	!	!	!	!
=154	=154	=154	=154	=154	=154	=154	=154	=154	=154	=154	=154	=154	=154	=154	=154	=154	=154
!	!	!	!	!	!	!	!	!LO:DY:rj	!	!	!	!	!	!	!LO:TX:a:t=1	!	!
4G\ 4E-X\	Et	2.rdd	4c/	.	.	4E-X\	Et	pp	4G/	Et	.	4c/	Et	.	2.r	.	.
4G\ 4E-\	u-	.	4c/	.	.	4E-\	u-	.	4G/	u-	.	4c/	u-	.	.	.	.
4G\ 4E-\	-nam	.	4c/	.	.	4E-\	-nam	.	4G/	-nam	.	4c/	-nam	.	.	.	.
!	!	!	!	!	!	!	!	!	!	!	!	!LO:LB:g=original	!	!	!	!	!
=155	=155	=155	=155	=155	=155	=155	=155	=155	=155	=155	=155	=155	=155	=155	=155	=155	=155
4A-X\ 4F\	san-	2.b-\	4d\	et	.	4F\	san-	.	4A-X/	san-	.	4d/	san-	.	2.b-\	et	.
4A-\ 4F\	-ctam	.	4d\	.	.	4F\	-ctam	.	4A-/	-ctam	.	4d/	-ctam	.	.	.	.
4A-\ 4F\	ca-	.	4d\	.	.	4F\	ca-	.	4A-/	ca-	.	4d/	ca-	.	.	.	.
!	!	!	!	!	!	!	!	!	!LO:LB:g=original	!	!	!	!	!	!LO:LB:g=original	!	!
=156	=156	=156	=156	=156	=156	=156	=156	=156	=156	=156	=156	=156	=156	=156	=156	=156	=156
4.B-\ 4.G\	-to-	2b-\	4.e\	A-	.	4.G\	-to-	.	4.B-X\	-to-	.	4.e-X/	-to-	.	2b-\	A-	.
8B-\ 8G\	-li-	.	8e\	.	.	8G\	-li-	.	8B-\	-li-	.	8e-/	-li-	.	.	.	.
4B-\ 4G\	-cam	4b-\	4e\	-po-	.	4G\	-cam	.	4B-\	-cam	.	4e-/	-cam	.	4b-\	-po-	.
!LO:LB:g=original	!	!LO:LB:g=original	!LO:LB:g=original	!	!	!	!	!	!	!	!	!	!	!	!	!	!
=157	=157	=157	=157	=157	=157	=157	=157	=157	=157	=157	=157	=157	=157	=157	=157	=157	=157
4d-X\ 4B- 4G-X\	et	2b-/	4en\	-sto-	.	4B- 4G-X\	et	.	4d-X\	ed	.	4en/	et	.	2b-\	-sto-	.
8d-\ 8B- 8G-\	A-	.	8e\	.	.	8B- 8G-\	a-	.	8d-\	A-	.	8e/	a-	.	.	.	.
8d-\ 8B- 8G-\	-po-	.	8e\	.	.	8B- 8G-\	-po-	.	8d-\	-po-	.	8e/	-po-	.	.	.	.
8d-\ 8B- 8G-\	-sto-	4b-/	8e\	-li	.	8B- 8G-\	-sto-	.	8d-\	-sto-	.	8e/	-sto-	.	4b-\	-li-	.
8d-\ 8B- 8G-\	-li-	.	8e\	.	.	8B- 8G-\	-li-	.	8d-\	-li-	.	8e/	-li-	.	.	.	.
=158	=158	=158	=158	=158	=158	=158	=158	=158	=158	=158	=158	=158	=158	=158	=158	=158	=158
2d-X\ 2B- 2F\	-cam	2.b-/	2f\	.	.	2B- 2F\	-cam	.	2d-X\	-cam	.	2f/	-cam	.	2.b-\	-cam	.
4d-\ 4B- 4F\	E-	.	4f\	.	.	4B- 4F\	E-	.	4d-\	E-	.	4f/	e-	.	.	.	.
!	!	!	!	!	!	!LO:LB:g=original	!	!	!	!	!	!	!	!	!	!	!
=159	=159	=159	=159	=159	=159	=159	=159	=159	=159	=159	=159	=159	=159	=159	=159	=159	=159
*	*	*	*	*	*	*	*	*	*	*	*	*	*^	*	*	*	*
2c\ 2B- 2En\	-cle-	4r	4g\	.	.	2B- 2En\	-cle-	.	2c\	-cle-	.	4g/	-cle	.	.	4r	.	.
.	.	4r	4c\	.	.	.	.	.	.	.	.	4c/	[[si-	.	.	4r	.	.
4c\ 4B- 4E\	-si-	4cc/	4c\	E	.	4B- 4E\	-si-	.	4c\	-si-	.	4c/	-am]]-	si	.	4cc\	E	.
*	*	*	*	*	*	*	*	*	*	*	*	*	*v	*v	*	*	*	*
=160	=160	=160	=160	=160	=160	=160	=160	=160	=160	=160	=160	=160	=160	=160	=160	=160	=160
2.c\ 2.A 2.E-X\	-am	4cc/	2c\	Cle-	.	2.A 2.E-X\	-am	.	2.c\	-am	.	2c/	-am	.	4cc\	cle-	.
.	.	4f/	.	-si-	.	.	.	.	.	.	.	.	.	.	4f/	-si-	.
.	.	4f/	4f\	-am	pp	.	.	.	.	.	.	4r	.	.	4f/	-am	.
!	!	!	!	!	!	!	!	!	!	!	!	!LO:LB:g=original	!	!	!	!	!
=161	=161	=161	=161	=161	=161	=161	=161	=161	=161	=161	=161	=161	=161	=161	=161	=161	=161
4B-\ 4D\	con-	4r	4f\	.	.	4B- 4D\	con-	.	4B-\	Con-	.	4f/	con	.	4r	.	.
4B-\ 4D\	-fi-	4b-/	4f\	Con	.	4B- 4D\	-fi-	.	4B-\	-fi-	.	4f/	fi-	.	4b-\	Con-	.
4B-\ 4D\	-te-	4b-/	4f\	fi-	.	4B- 4D\	-te-	.	4B-\	-te-	.	4f/	-te-	.	4b-\	-fi-	.
*	*	*v	*v	*	*	*	*	*	*	*	*	*	*	*	*	*	*
!	!	!	!	!	!	!	!	!LO:LB:g=original	!	!	!	!	!	!	!	!
=162	=162	=162	=162	=162	=162	=162	=162	=162	=162	=162	=162	=162	=162	=162	=162	=162
!LO:TX:b:t=P:problem:kasownik dopisany ołówkiem	!	!	!	!	!LO:TX:a:t=P:problem:bemol dopisany ołówkiem	!	!	!	!	!	!	!	!	!	!	!
2.B-\ 2.En\	-or	2b-/ 2g/	-te-	.	2.B- 2.E-\	-or	.	2.B-\	-or	.	2.g/	-or	.	2b-\	-te-	.
.	.	4b-/ 4g/	-or	.	.	.	.	.	.	.	.	.	.	4b-\	-or	.
!LO:LB:g=original	!	!LO:LB:g=original	!	!	!	!	!	!	!	!	!	!	!	!LO:LB:g=original	!	!
=163	=163	=163	=163	=163	=163	=163	=163	=163	=163	=163	=163	=163	=163	=163	=163	=163
4B-\ 4F\	u-	4b-/ 4d/	.	.	4F\	u-	.	4B-\	u-	.	4d/	u-	.	4b-\	u-	.
4B-\ 4F\	-num	4b-/ 4d/	.	.	4F\	-num	.	4B-\	-num	.	4d/	-num	.	4b-\	-num	.
4B-\ 4F\	bap-	4b-/ 4d/	.	.	4F\	ba-	.	4B-\	ba-	.	4d/	bap-	.	4b-\	ba-	.
=164	=164	=164	=164	=164	=164	=164	=164	=164	=164	=164	=164	=164	=164	=164	=164	=164
*	*	*^	*	*	*	*	*	*	*	*	*	*	*	*	*	*
2B-\ 2G\	-tis-	4b-/	2e-X\	.	.	2G\	-ptis-	.	2B-\	-ptis-	.	2e-X/	-tis-	.	4b-\	-ptis-	.
.	.	4b-/	.	.	.	.	.	.	.	.	.	.	.	.	4b-\	-ma	.
4B-\ 4G\	-ma	4r	4e-\	.	.	4G\	-ma	.	4B-\	-ma	.	4e-/	-ma	.	4r	.	.
*	*	*v	*v	*	*	*	*	*	*	*	*	*	*	*	*	*	*
!	!	!	!	!	!LO:LB:g=original	!	!	!	!	!	!	!	!	!	!	!
=165	=165	=165	=165	=165	=165	=165	=165	=165	=165	=165	=165	=165	=165	=165	=165	=165
4.B-\ 4.D\	in	4.b-/ 4.f/	.	.	4.D\	in	.	4.B-\	in	.	4.f/	in	.	4.b-\	in	.
8B-\ 8D\	re-	8b-/ 8f/	.	.	8D\	re-	.	8B-\	re-	.	8f/	re-	.	8b-\	re-	.
8B-\ 8D\	-mi-	8b-/ 8f#X/	.	.	8D\	-mi-	.	8B-\	-mi-	.	8f#X/	-mi-	.	8b-\	-mi-	.
8B-\ 8D\	-si-	8b-/ 8f#/	.	.	8D\	-si-	.	8B-\	-si-	.	8f#/	-si-	.	8b-\	-si-	.
=166	=166	=166	=166	=166	=166	=166	=166	=166	=166	=166	=166	=166	=166	=166	=166	=166
!	!	!	!	!	!LO:TX:a:t=P:problem:bemol dopisany ołówkiem	!	!	!	!	!	!	!	!	!	!	!
2B-\ 2E\	-o-	2b-/ 2g/	.	.	2E-\	-o-	.	2B-\	-o-	.	2g/	-o-	.	2b-\	-o-	.
4B-\ 4E\	-nem	4b-/ 4g/	.	.	4E\	-nem	.	4B-\	-nem	.	4g/	-nem	.	4b-\	-nem	.
!	!	!	!	!	!	!	!	!	!	!	!LO:LB:g=original	!	!	!	!	!
=167	=167	=167	=167	=167	=167	=167	=167	=167	=167	=167	=167	=167	=167	=167	=167	=167
!	!	!	!	!	!	!	!	!	!	!	!LO:TX:a:t=P:problem:skreślony takt	!	!	!	!	!
2B-\ 2F\	pec-	2b-/ 2d/	.	.	2F\	pec-	.	2B-\	pec-	.	2d/	pec-	.	2b-\	pec-	.
4B-\ 4F\	-ca-	4b-/ 4d/	.	.	4F\	-ca-	.	4B-\	-ca-	.	4d/	-ca-	.	4b-\	-ca-	.
!	!	!	!	!	!	!	!	!LO:LB:g=original	!	!	!	!	!	!	!	!
=168	=168	=168	=168	=168	=168	=168	=168	=168	=168	=168	=168	=168	=168	=168	=168	=168
2B-\ 2G\	-to-	4b-/ 4e-X/	.	.	2G\	-to-	.	2B-\	-to-	.	4e/	-to-	.	4b-\	-to-	.
.	.	4b-/ 4e-/	.	.	.	.	.	.	.	.	4e/	-rum	.	4b-\	-rum	.
4B-\ 4G\	-rum	4r	.	.	4G\	-rum	.	4B-\	-rum	.	4r	.	.	4r	.	.
!LO:PB:g=original	!	!LO:PB:g=original	!	!	!	!	!	!	!	!	!	!	!	!LO:LB:g=original	!	!
=169	=169	=169	=169	=169	=169	=169	=169	=169	=169	=169	=169	=169	=169	=169	=169	=169
*	*	*^	*	*	*	*	*	*	*	*	*	*	*	*	*	*
!	!	!	!	!	!LO:HP:a	!	!	!	!	!	!	!	!	!LO:DY:rj	!	!	!
2B-\	et	2b-/	2b-\	.	<	2B-\	et	f	2B-\	et	.	2b-\	et	f	2b-\	et	.
4B-\	ex	4b-/	4b-\	.	.	4B-\	ex	.	4B-\	ex-	.	4b-\	ex-	.	4b-\	ex-	.
!	!	!	!	!	!	!LO:LB:g=original	!	!	!	!	!	!	!	!	!	!	!
=170	=170	=170	=170	=170	=170	=170	=170	=170	=170	=170	=170	=170	=170	=170	=170	=170	=170
*^	*	*	*	*	*	*	*	*	*	*	*	*	*	*	*	*	*
!	!	!	!	!	!	!	!	!	!	!	!	!	!	!	!	!	!	!LO:HP:a
4.B-/	4.B-\	pec-	4.b-/	4.b-\	.	.	4.B-\	pec-	.	4.B-\	-pec-	.	4.b-\	-pe-	.	4.b-\	-pec-	<
8A/	8A\	-to-	8a/	8a\	.	.	8A\	-to-	.	8A\	-to	.	8a\	-cto	.	8a\	-to	.
8B-/	8B-\	-re	8b-/	8b-\	.	.	8B-\	-re	.	8B-\	re-	.	8b-\	re-	.	8b-\	re-	.
8c/	8c\	sur	8cc/	8cc\	.	[[	8c\	sur	.	8c\	-sur-	.	8cc\	-sur-	.	8cc\	-sur-	[[
=171	=171	=171	=171	=171	=171	=171	=171	=171	=171	=171	=171	=171	=171	=171	=171	=171	=171	=171
!	!	!	!	!	!	!LO:DY:a	!	!	!	!	!	!LO:DY:rj	!	!	!	!	!	!LO:DY:rj
2d-X/	2d-\	re-	2dd-X/	2dd-\	.	ff	2d-X\	re-	ff	2d-X\	-re-	f	2dd-X\	-re-	.	2dd-X\	-re-	ff
!	!	!	!	!	!	!	!LO:N:xstem	!	!	!	!	!	!	!	!	!	!	!
4d-/	4d-\	-cti	4dd-/	4dd-\	.	.	4d-\	-cti-	.	4d-\	-cti-	.	4dd-\	-cti-	.	4dd-\	-cti	.
!	!	!	!	!	!	!	!	!	!	!	!	!	!LO:LB:g=original	!	!	!	!	!
*	*	*	*v	*v	*	*	*	*	*	*	*	*	*	*	*	*	*	*
*v	*v	*	*	*	*	*	*	*	*	*	*	*	*	*	*	*	*
=172	=172	=172	=172	=172	=172	=172	=172	=172	=172	=172	=172	=172	=172	=172	=172	=172
!	!	!	!	!LO:DY:a	!	!	!	!	!	!	!	!	!	!	!	!LO:DY:rj
2.B-\ 2.G-X\	o-	2.dd-X\ 2.g-X\	.	p	2.G-X\	-o-	.	2.B-\	-o-	.	2.g-X/	-o-	.	2.dd-X\	o-	p
=173	=173	=173	=173	=173	=173	=173	=173	=173	=173	=173	=173	=173	=173	=173	=173	=173
4A-X\ 4D-X\	-nem	4dd-X\ 4f\	.	.	4D-X\	-nem	.	4A-X\	-nem	.	4g/	-nem	.	4dd-X\	-nem	.
4r	.	4r	.	.	4r	.	.	4r	.	.	4r	.	.	4r	.	.
4r	.	4r	.	.	4r	.	.	4r	.	.	4r	.	.	4r	.	.
.	.	.	.	.	.	.	.	.	.	.	.	.	p	.	.	pp
!	!	!	!	!	!	!	!	!LO:LB:g=original	!	!	!	!	!	!	!	!
=174	=174	=174	=174	=174	=174	=174	=174	=174	=174	=174	=174	=174	=174	=174	=174	=174
!	!	!	!	!LO:DY:a	!	!	!LO:DY:rj	!	!	!LO:DY:rj	!	!	!	!	!	!
2A-X\ 2D-X\	mor-	2f/ 2Bn/	.	pp	2D-X\	mor-	pp	2A-X\	mor-	p	2Bn/	mor-	.	2f/	mor-	.
4A-\ 4D-\	-tu-	4f/ 4B/	.	.	4D-\	-tu-	.	4A-\	-tu-	.	4B/	-tu-	.	4f/	-tu-	.
=175	=175	=175	=175	=175	=175	=175	=175	=175	=175	=175	=175	=175	=175	=175	=175	=175
!	!	!LO:TX:a:i:t=rall	!	!	!	!	!	!	!	!	!	!	!LO:TX:a:t=P:problem:brak początku ligatury	!	!	!
2.A-X\ 2.C\	-o-	2.f/ 2.c/	.	.	2.C\	-o-	.	2.A-X\	-o-	.	2.c/	-o-	.	[2.f/	-o-	.
!	!	!	!	!	!LO:LB:g=original	!	!	!	!	!	!	!	!	!LO:LB:g=original	!	!
=176	=176	=176	=176	=176	=176	=176	=176	=176	=176	=176	=176	=176	=176	=176	=176	=176
*	*	*^	*	*	*	*	*	*	*	*	*	*	*	*	*	*
!	!	!	!LO:TX:b:t=P:problem:skreślona nuta 2c	!	!	!	!	!	!	!	!	!	!	!	!	!	!
2.A-X\ 2.BBn\	.	2.f/	2.d\	.	.	2.BBn/	-o-	.	2.A-X\	.	.	2.d/	.	.	2.f/]	.	.
*	*	*v	*v	*	*	*	*	*	*	*	*	*	*	*	*	*	*
!LO:LB:g=original	!	!LO:LB:g=original	!	!	!	!	!	!	!	!	!	!	!	!	!	!
=177	=177	=177	=177	=177	=177	=177	=177	=177	=177	=177	=177	=177	=177	=177	=177	=177
4G\ 4C\	-rum	4e/ 4c/	.	.	4C/	-rum	.	4G/	-rum	.	4c/	-rum	.	4e/	-rum	.
4r	.	4r	.	.	4r	.	.	4r	.	.	4r	.	.	4r	.	.
4r;	.	4r;	.	.	4r;	.	.	4r;	.	.	4r;	.	.	4r;	.	.
!LO:TX:a:t=P:problem:pojedyncza kreska taktowa	!	!LO:TX:a:t=P:problem:pojedyncza kreska taktowa	!	!	!	!	!	!	!	!	!	!	!	!	!	!
.	.	.	.	.	.	.	p	.	.	p	.	.	.	.	.	.
=178||	=178||	=178||	=178||	=178||	=178||	=178||	=178||	=178||	=178||	=178||	=178||	=178||	=178||	=178||	=178||	=178||
*	*	*^	*	*	*	*	*	*	*	*	*	*	*	*	*	*
!	!	!LO:TX:b:t=allo	!	!	!LO:DY:rj	!	!	!	!	!	!	!	!	!LO:DY:rj	!	!	!LO:DY:rj
4G\ 4E 4C\	Et-	4c/	4c\	.	pp	4E 4C\	Et	.	4G/	Et	.	4c/	Et	p	4c/	Et	pp
!	!	!	!	!	!LO:HP:a	!	!	!	!	!	!	!	!	!	!	!	!
4G\ 4E 4C\	-vi-	4c/	4c\	.	<	4E 4C\	vi-	.	4G/	vi-	.	4c/	vi-	.	4c/	vi-	.
4G\ 4E 4C\	-tam	4c/	4c\	.	.	4E 4C\	-tam	.	4G/	-tam	.	4c/	-tam	.	4c/	-tam	.
*	*	*v	*v	*	*	*	*	*	*	*	*	*	*	*	*	*	*
=179	=179	=179	=179	=179	=179	=179	=179	=179	=179	=179	=179	=179	=179	=179	=179	=179
2.A-X\ 2.F 2.C\	ven-	2.d-/	.	.	2.F 2.C\	ven-	.	2.A-X\	ven-	.	2.d-X^>/	ven-	.	2.d-X/	ven-	.
!	!	!	!	!	!	!	!	!	!	!	!LO:LB:g=original	!	!	!	!	!
=180	=180	=180	=180	=180	=180	=180	=180	=180	=180	=180	=180	=180	=180	=180	=180	=180
*	*	*^	*	*	*	*	*	*	*	*	*	*	*	*	*	*
2B-\ 2G 2C\	-tu-	2en/	2ryy	.	.	2G 2C\	-tu-	.	2B-\	-tu-	.	2en/	-tu-	.	2en/	-tu-	.
4B-\ 4G 4C\	-ri	4e/	4e\	.	.	4G 4C\	-ri	.	4B-\	-ri	.	4e/	-ri	.	4e/	-ri	.
*	*	*v	*v	*	*	*	*	*	*	*	*	*	*	*	*	*	*
!	!	!	!	!	!	!	!	!LO:LB:g=original	!	!	!	!	!	!	!	!
=181	=181	=181	=181	=181	=181	=181	=181	=181	=181	=181	=181	=181	=181	=181	=181	=181
(2.A-X\ [2.C\	se-	(>2.f/ [<2.c/	.	.	(2.A-X [>2.C\	se-	.	(2.A-X\	se-	.	[2.c/	se-	.	(>2.f/	se-	.
=182	=182	=182	=182	=182	=182	=182	=182	=182	=182	=182	=182	=182	=182	=182	=182	=182
4E\) 4C\]	.	4g/) 4c/]	.	.	4E 4C\])	.	.	4En/)	.	.	4c/]	.	.	4g/)	.	.
4E\ 4C\	-cu-	4g/ 4c/	.	.	4E 4C\	-cu-	.	4E/	-cu-	.	4c/	-cu-	.	4g/	-cu-	.
4E\ 4C\	-li	4g/ 4c/	.	.	4E 4C\	-li	.	4E/	-li	.	4c/	-li	.	4g/	-li	.
!	!	!	!	!	!LO:LB:g=original	!	!	!	!	!	!	!	!	!LO:LB:g=original	!	!
=183	=183	=183	=183	=183	=183	=183	=183	=183	=183	=183	=183	=183	=183	=183	=183	=183
2F\ 2C\	a-	2a-X/ 2c/	.	.	2F 2C\	a-	.	2F/	a-	.	2c/	a-	.	2a-X/	a-	.
4F\ 4C\	-men	4a-/ 4c/	.	.	4F 4C\	-men	.	4F/	-men	.	4c/	-men	.	4a-/	-men	.
=184	=184	=184	=184	=184	=184	=184	=184	=184	=184	=184	=184	=184	=184	=184	=184	=184
!	!	!	!	!	!	!	!	!	!	!LO:DY:rj	!	!	!	!	!	!
2.d\ 2.A-X 2.C\	a-	(2.bn/ (2.f/	.	.	2.A-X 2.C\	a-	.	2.d\	a-	f	2.f/	a-	.	(2.bn/	a-	.
=185	=185	=185	=185	=185	=185	=185	=185	=185	=185	=185	=185	=185	=185	=185	=185	=185
2.c\ 2.G 2.C\	-men	2.cc/) 2.e/)	.	.	2.G 2.C\	-men	.	2.c\	-men	.	2.e/	-men	.	2cc\)	-men	.
.	.	.	.	[[	.	.	.	.	.	.	.	.	.	4r	.	.
!LO:LB:g=original	!	!LO:LB:g=original	!	!	!	!	!	!	!	!	!	!	!	!	!	!
=186	=186	=186	=186	=186	=186	=186	=186	=186	=186	=186	=186	=186	=186	=186	=186	=186
!	!	!	!	!LO:DY:rj	!	!	!	!	!	!	!	!	!	!	!	!
2.c\ 2.B-\	a-	2.g/ 2.d/	.	f <	2.B-\	a-	.	2.c\	a-	<	2.e/	a-	<	2.g/	a-	<
=187	=187	=187	=187	=187	=187	=187	=187	=187	=187	=187	=187	=187	=187	=187	=187	=187
2.c\ 2.A\	.	2.a/ 2.f/	.	.	2.A\	.	.	2.c\	.	.	2.f/	.	[[	2.a/	.	.
!	!	!	!	!	!	!	!	!	!	!	!LO:LB:g=original	!	!	!	!	!
=188	=188	=188	=188	=188	=188	=188	=188	=188	=188	=188	=188	=188	=188	=188	=188	=188
2c\ 2G\	-men	2b-/ 2e/	.	.	2G\	-men	.	2c\	-men	[	2e/	-men	.	2b-\	-men	[
4r	.	4r	.	.	4r	.	.	4r	.	.	4r	.	.	4r	.	.
.	.	.	.	[[	.	.	f	.	.	.	.	.	f	.	.	.
!	!	!	!	!	!	!	!	!LO:LB:g=original	!	!	!	!	!	!	!	!
=189	=189	=189	=189	=189	=189	=189	=189	=189	=189	=189	=189	=189	=189	=189	=189	=189
!	!	!	!	!LO:DY:rj	!	!	!	!	!	!LO:DY:rj	!	!	!	!	!	!LO:DY:rj
4c\ 4A 4F\	Et	4cc\ 4f\	.	ff	4A 4F\	Et	.	4c\	Et	f	4f/	Et	.	4cc\	Et	ff
4A\ 4F\	vi-	4ff\ 4f\	.	.	4F\	vi-	.	4A\	vi-	.	4f/	vi-	.	4ff\	vi-	.
4Bn\ 4D\	-tam	4ff\ 4g\	.	.	4D\	-tam	.	4Bn\	-tam	.	4g/	-tam	.	4ff\	-tam	.
!	!	!	!	!	!LO:PB:g=original	!	!	!	!	!	!	!	!	!	!	!
=190	=190	=190	=190	=190	=190	=190	=190	=190	=190	=190	=190	=190	=190	=190	=190	=190
*	*	*^	*	*	*	*	*	*	*	*	*	*	*	*	*	*
2.c\ 2.C\	ven-	2ff/	2.g\	.	.	2.C/	ven-	.	2.c\	ven-	.	2.g/	ven-	.	(2ff\	ven-	.
.	.	4ee/	.	.	.	.	.	.	.	.	.	.	.	.	4ee\	.	.
*	*	*v	*v	*	*	*	*	*	*	*	*	*	*	*	*	*	*
!	!	!	!	!	!	!	!	!	!	!	!	!	!	!LO:LB:g=original	!	!
=191	=191	=191	=191	=191	=191	=191	=191	=191	=191	=191	=191	=191	=191	=191	=191	=191
4B-\ 4BB-\	.	4dd\ 4f\	.	.	4BB-/	.	.	4B-\	.	.	4f/	.	.	4dd\)	.	.
4B-\ 4D\	-tu-	4dd\ 4f\	.	.	4D\	-tu-	.	4B-\	-tu-	.	4f/	-tu-	.	4dd\	-tu-	.
4B-\ 4En\	-ri	4dd\ 4f\	.	.	4En\	-ri	.	4B-\	-ri	.	4g/	-ri	.	4dd\	-ri	.
=192	=192	=192	=192	=192	=192	=192	=192	=192	=192	=192	=192	=192	=192	=192	=192	=192
4.B-\ 4.F\	se-	4.dd\ 4.f\	.	.	4.F\	se-	.	4.B-\	se-	.	4.f/	se-	.	4.dd\	se-	.
8A\ 8F\	-cu-	8cc\ 8f\	.	.	8F\	-cu-	.	8A\	-cu-	.	8f/	-cu-	.	8cc\	-cu-	.
4A\ 4F\	-li	4cc\ 4f\	.	.	4F\	-li	.	4A\	-li	.	4f/	-li	.	4cc\	-li	.
=193	=193	=193	=193	=193	=193	=193	=193	=193	=193	=193	=193	=193	=193	=193	=193	=193
*	*	*^	*	*	*	*	*	*	*	*	*	*	*	*	*	*
2d\ 2G\	a-	2b-/	4d\	.	.	2G\	a-	.	2d\	a-	f	(4d/	a-	.	2b-/	a-	.
.	.	.	4g\	.	.	.	.	.	.	.	.	4g/)	.	.	.	.	.
4d\ 4G\	-men	4b-/	4f\	.	.	4G\	-men	.	4d\	-men	.	4f/	-men	.	4b-/	-men	.
*	*	*v	*v	*	*	*	*	*	*	*	*	*	*	*	*	*	*
!LO:LB:g=original	!	!LO:LB:g=original	!	!	!	!	!	!	!	!	!LO:LB:g=original	!	!	!	!	!
=194	=194	=194	=194	=194	=194	=194	=194	=194	=194	=194	=194	=194	=194	=194	=194	=194
2c\ 2C\	a-	2b-/ 2e/	.	>	2C/	a-	.	2c\	a-	.	2e/	a-	.	2b-/	a-	.
4c\ 4F\	-men	4a/ 4f/	.	.	4F\	-men	.	4c\	-men	.	4f/	-men	.	4a/	-men	.
!	!	!	!	!	!	!	!	!LO:PB:g=original	!	!	!	!	!	!	!	!
=195	=195	=195	=195	=195	=195	=195	=195	=195	=195	=195	=195	=195	=195	=195	=195	=195
*^	*	*^	*	*	*	*	*	*	*	*	*	*	*	*	*	*
2B-/	2.BB-\	a-	4g/	2g\	.	] p	2.BB-/	a-	.	2B-\	a-	.	2g/	a-	.	4g/	a-	.
.	.	.	4dd/	.	.	.	.	.	.	.	.	.	.	.	.	4dd\	.	.
4G/	.	.	8cc/L	4d\	.	.	.	.	.	4G/	.	.	4d/	.	.	(8cc\L	.	.
.	.	.	8b-/J	.	.	.	.	.	.	.	.	.	.	.	.	8b-\J)	.	.
!	!	!	!	!	!	!	!LO:LB:g=original	!	!	!	!	!	!	!	!	!	!	!
=196	=196	=196	=196	=196	=196	=196	=196	=196	=196	=196	=196	=196	=196	=196	=196	=196	=196	=196
2B-\	2C\	.	8a/L	2.e\	.	.	2C/	.	.	2B-\	.	.	2.e/	-men	.	(8a/L	.	.
.	.	.	8g/	.	.	.	.	.	.	.	.	.	.	.	.	8g/	.	.
.	.	.	8f#X/	.	.	.	.	.	.	.	.	.	.	.	.	8f#X/)	.	.
.	.	.	8g/J	.	.	.	.	.	.	.	.	.	.	.	.	8g/J	.	.
8G/L	4C\	-men	8cc/L	.	.	.	4C/	-men	.	8G/L	-men	.	.	.	.	8cc\L	-men	.
8c/J	.	.	8b-/J	.	.	.	.	.	.	8c/J	.	.	.	.	.	8b-\J	.	.
*	*	*	*v	*v	*	*	*	*	*	*	*	*	*	*	*	*	*	*
*v	*v	*	*	*	*	*	*	*	*	*	*	*	*	*	*	*	*
!	!	!	!	!	!	!	!	!	!	!	!	!	!	!LO:LB:g=original	!	!
=197	=197	=197	=197	=197	=197	=197	=197	=197	=197	=197	=197	=197	=197	=197	=197	=197
!	!	!	!	!	!	!	!LO:DY:rj	!	!	!	!	!	!LO:DY:a:rj	!	!	!
4A\ 4F\	Et	4cc\ 4f\	.	f	4F\	Et	f	4A\	Et	.	4f/	Et	f	4cc\	Et	.
4A\ 4F\	vi-	4ff\ 4f\	.	.	4F\	vi-	.	4A\	vi-	.	4f/	vi-	.	4ff\	vi-	.
4Bn\ 4D\	-tam	4ff\ 4g\	.	.	4D\	-tam	.	4Bn\	-tam	.	4g/	-tam	.	4ff\	-tam	.
=198	=198	=198	=198	=198	=198	=198	=198	=198	=198	=198	=198	=198	=198	=198	=198	=198
*	*	*^	*	*	*	*	*	*	*	*	*	*	*	*	*	*
2.c\ 2.C\	ven-	2ff\	2.g\	.	.	2.C\	ven-	.	2.c\	ven-	.	2.g/	ven-	.	2ff\	ven-	.
.	.	4ee\	.	.	.	.	.	.	.	.	.	.	.	.	4ee\	.	.
*	*	*v	*v	*	*	*	*	*	*	*	*	*	*	*	*	*	*
=199	=199	=199	=199	=199	=199	=199	=199	=199	=199	=199	=199	=199	=199	=199	=199	=199
4B-\ 4BB-\	.	4dd\ 4f\	.	.	4BB-/	.	.	4B-\	.	.	4f/	.	.	4dd\	.	.
4B-\ 4D\	-tu-	4dd\ 4f\	.	.	4D\	-tu-	.	4B-\	-tu-	.	4f/	-tu-	.	4dd\	-tu-	.
4B-\ 4En\	-ri	4dd\ 4g\	.	.	4En\	-ri	.	4B-\	-ri	.	4g/	-ri	.	4dd\	-ri	.
!LO:LB:g=original	!	!LO:LB:g=original	!	!	!	!	!	!	!	!	!LO:LB:g=original	!	!	!	!	!
=200	=200	=200	=200	=200	=200	=200	=200	=200	=200	=200	=200	=200	=200	=200	=200	=200
4.B-\ 4.F\	se-	4.dd/ 4.f/	.	.	4.F\	se-	.	4.B-\	se-	.	4.f/	se-	.	4.dd\	se-	.
8A\ 8F\	-cu-	8cc/ 8f/	.	.	8F\	-cu-	.	8A\	-cu-	.	8f/	-cu-	.	8cc\	-cu-	.
4A\ 4F\	-li	4cc/ 4f/	.	.	4F\	-li	.	4A\	-li	.	4f/	-li	.	4cc\	-li	.
!	!	!	!	!	!LO:LB:g=original	!	!	!LO:LB:g=original	!	!	!	!	!	!	!	!
=201	=201	=201	=201	=201	=201	=201	=201	=201	=201	=201	=201	=201	=201	=201	=201	=201
2A-X\ 2D\	a-	2bn/ 2f/	.	pp	2D\	a-	.	2A-X\	a-	.	2f/	a-	.	2bn\	a-	.
4A-\ 4D\	-men	4b/ 4f/	.	.	4D\	-men	.	4A-\	-men	.	4f/	-men	.	4b\	-men	.
=202	=202	=202	=202	=202	=202	=202	=202	=202	=202	=202	=202	=202	=202	=202	=202	=202
2A-X\ 2D\	a-	2bn/ 2f/	.	.	2D\	a-	.	2A-X\	a-	.	2f/	a-	.	2bn\	a-	.
4A-\ 4D\	-men	4b/ 4f/	.	.	4D\	-men	.	4A-\	-men	.	4f/	-men	.	4b\	-men	.
!	!	!	!	!	!	!	!	!	!	!	!	!	!	!LO:LB:g=original	!	!
=203	=203	=203	=203	=203	=203	=203	=203	=203	=203	=203	=203	=203	=203	=203	=203	=203
2.A\ 2.C\	a-	2.cc/ 2.f/	.	.	2.C/	a-	.	2.An\	a-	.	2.f/	a-	.	2.cc\	a-	.
=204	=204	=204	=204	=204	=204	=204	=204	=204	=204	=204	=204	=204	=204	=204	=204	=204
*	*	*^	*	*	*	*	*	*	*	*	*	*	*	*	*	*
2.B-\ 2.G 2.C\	.	2.e/	2.e\	.	.	2.G 2.C\	.	.	2.B-\	.	.	2.e/	.	.	2.e/	.	.
*	*	*v	*v	*	*	*	*	*	*	*	*	*	*	*	*	*	*
=205	=205	=205	=205	=205	=205	=205	=205	=205	=205	=205	=205	=205	=205	=205	=205	=205
4A\ 4F\	-men	4f/ 4f\	.	.	4F\	-men	.	4A\	-men	.	4f/	-men	.	4f/	men	.
4r	.	4r	.	.	4r	.	.	4r	.	.	4r	.	.	4r	.	.
4r	.	4r	.	.	4r	.	.	4r	.	.	4r	.	.	4r	.	.
.	.	.	.	ff	.	.	ff	.	.	.	.	.	.	.	.	.
=206	=206	=206	=206	=206	=206	=206	=206	=206	=206	=206	=206	=206	=206	=206	=206	=206
*	*	*^	*	*	*	*	*	*	*	*	*	*	*	*	*	*
!LO:N:vis=2	!	!	!	!	!	!	!	!	!	!	!LO:DY:rj	!	!	!LO:DY:rj	!	!	!
2.g\ 2.c 2.C\	a-	2.ee/	2.b-\	.	.	2.c 2.C\	a-	.	2.g\	a-	f	2.b-^\	a-	ff	(2.ee^\	a-	.
*	*	*v	*v	*	*	*	*	*	*	*	*	*	*	*	*	*	*
!	!	!	!	!	!	!	!	!	!	!	!LO:LB:g=original	!	!	!	!	!
=207	=207	=207	=207	=207	=207	=207	=207	=207	=207	=207	=207	=207	=207	=207	=207	=207
4f\ 4c 4F\	-men	4ff\ 4a\	.	.	4c 4F\	-men	.	4f\	-men	.	4a\	-men	.	4ff\)	-men	.
4r	.	4r	.	.	4r	.	.	4r	.	.	4r	.	.	4r	.	.
4r	.	4r	.	.	4r	.	.	4r	.	.	4r	.	.	4r	.	.
!LO:LB:g=original	!	!LO:LB:g=original	!	!	!LO:LB:g=original	!	!	!LO:LB:g=original	!	!	!	!	!	!	!	!
=208	=208	=208	=208	=208	=208	=208	=208	=208	=208	=208	=208	=208	=208	=208	=208	=208
!LO:N:vis=2	!	!	!	!	!	!	!	!	!	!	!	!	!	!	!	!
2.B-\ 2.G 2.C\	a-	2.cc/ 2.e/	.	.	2.G 2.C\	a-	.	2.B-\	a-	.	2.e^>/	a-	.	2.cc^\	a-	.
=209	=209	=209	=209	=209	=209	=209	=209	=209	=209	=209	=209	=209	=209	=209	=209	=209
*^	*	*^	*	*	*	*	*	*	*	*	*	*	*	*	*	*
4A\	4F\	-men	4f/	4f\	.	.	4F\	-men	.	4A\	-men	.	4f/	-men	.	4f/	-men	.
4r	4ryy	.	4r	4ryy	.	.	4r	.	.	4r	.	.	4r	.	.	4r	.	.
4r	4ryy	.	4r	4ryy	.	.	4r	.	.	4r	.	.	4r	.	.	4r	.	.
*v	*v	*	*	*	*	*	*	*	*	*	*	*	*	*	*	*	*	*
*	*	*v	*v	*	*	*	*	*	*	*	*	*	*	*	*	*	*
==	==	==	==	==	==	==	==	==	==	==	==	==	==	==	==	==
*-	*-	*-	*-	*-	*-	*-	*-	*-	*-	*-	*-	*-	*-	*-	*-	*-
!!!system-decoration: [g1]{(s5,s6)}
!!!RDF**kern: > = above
!!!RDF**kern: < = below
!!!ENC: Berenika Jozajtis
!!!END: 2021-01-12
!!!ENC: Zofia Niedbalska
!!!END: 2021-01-23
